<?xml version="1.0" encoding="UTF-8"?>
<map version="1.10" tiledversion="1.12.1" orientation="orthogonal" renderorder="right-down" width="50" height="50" tilewidth="64" tileheight="64" infinite="0" nextlayerid="7" nextobjectid="58">
 <tileset firstgid="1" source="../tiles/tiles_for_programming.tsx"/>
 <layer id="2" name="floor" width="50" height="50">
  <data encoding="csv">
1,4,2,3,3,2,2,2,4,2,2,3,3,1,3,1,4,3,4,2,4,2,4,4,2,1,3,3,4,3,1,4,4,1,3,4,4,1,1,2,4,1,3,1,3,3,4,4,4,6,
3,1,2,4,4,96,96,96,96,96,96,96,96,96,96,96,96,96,96,96,96,96,96,96,96,96,96,96,96,96,96,96,96,96,96,96,96,96,96,96,96,96,96,96,96,96,96,96,1,5,
1,3,3,3,4,96,96,96,96,96,96,96,96,96,96,96,96,96,96,96,96,96,96,96,96,96,96,96,96,96,96,96,96,96,96,96,96,96,96,96,96,96,96,96,96,96,96,96,3,6,
4,3,2,1,3,96,96,96,96,96,96,96,96,96,96,96,96,96,96,96,96,96,96,96,96,96,96,96,96,96,96,96,96,96,96,96,96,96,96,96,96,96,96,96,96,96,96,96,3,5,
3,1,1,4,2,96,96,96,96,96,96,96,96,96,96,96,96,96,96,96,96,96,96,96,96,96,96,96,96,96,96,96,96,96,96,96,96,96,96,96,96,96,96,96,96,96,96,96,2,5,
2,2,4,1,4,96,96,96,96,96,96,96,96,96,96,96,96,96,96,96,96,96,96,96,96,96,96,96,96,96,96,96,96,96,96,96,96,96,96,96,96,96,96,96,96,96,96,96,4,5,
3,2,2,3,2,96,96,96,96,96,96,96,96,96,96,96,96,96,96,96,96,96,96,96,96,96,96,96,96,96,96,96,96,96,96,96,96,96,96,96,96,96,96,96,96,96,96,96,2,6,
2,3,2,4,4,96,96,96,96,96,96,96,96,96,96,96,96,96,96,96,96,96,96,96,96,96,96,96,96,96,96,96,96,96,96,96,96,96,96,96,96,96,96,96,96,96,96,96,2,5,
4,3,2,1,1,96,96,96,96,96,96,96,96,96,96,96,96,96,96,96,96,96,96,96,96,96,96,96,96,96,96,96,96,96,96,96,96,96,96,96,96,96,96,96,96,96,96,96,4,6,
2,2,3,4,3,96,96,96,96,96,96,96,96,96,96,96,96,96,96,96,96,96,96,96,96,96,96,96,96,96,96,96,96,96,96,96,96,96,96,96,96,96,96,96,96,96,96,96,1,6,
4,4,4,2,1,96,96,96,96,96,96,96,96,96,96,96,96,96,96,96,96,96,96,96,96,96,96,96,96,96,96,96,96,96,96,96,96,96,96,96,96,96,96,96,96,96,96,96,6,6,
1,3,2,1,1,96,96,96,96,96,96,96,96,96,96,96,96,96,96,96,96,96,96,96,96,96,96,96,96,96,96,96,96,96,96,96,96,96,96,96,96,96,96,96,96,96,96,96,3,2,
3,2,4,3,1,96,96,96,96,96,96,96,96,96,96,96,96,96,96,96,96,96,96,96,96,96,96,96,96,96,96,96,96,96,96,96,96,96,96,96,96,96,96,96,96,96,96,96,4,1,
3,2,3,1,4,96,96,96,96,96,96,96,96,96,96,96,96,96,96,96,96,96,96,96,96,96,96,96,96,96,96,96,96,96,96,96,96,96,96,96,96,96,96,96,96,96,96,96,2,4,
4,4,3,2,3,96,96,96,96,96,96,96,96,96,96,96,96,96,96,96,96,96,96,96,33,30,30,34,96,33,30,30,34,96,96,96,96,96,96,96,96,96,96,96,96,96,96,96,2,4,
2,4,1,1,4,96,96,96,96,96,96,96,96,96,96,96,96,96,96,96,96,96,96,96,28,31,32,29,96,28,31,32,29,96,96,96,96,96,96,96,96,96,96,96,96,96,96,96,3,4,
1,3,3,2,4,96,96,96,96,96,96,96,96,96,96,96,96,96,96,96,96,96,96,96,28,58,59,29,96,28,58,59,29,96,96,96,96,96,96,96,96,96,96,96,96,96,96,96,1,4,
4,1,1,3,2,96,96,96,96,96,96,96,96,96,96,96,96,96,96,96,96,96,96,96,60,57,57,61,96,60,57,57,61,96,96,96,96,96,96,96,96,96,96,96,96,96,96,96,1,4,
2,2,3,4,2,96,96,96,96,96,96,96,96,96,96,96,96,96,96,96,96,96,96,96,96,96,96,96,96,96,96,96,96,96,96,96,96,96,96,96,96,96,96,96,96,96,96,96,3,3,
2,3,3,3,3,96,96,96,96,96,96,96,96,96,96,96,96,96,96,96,96,96,96,96,96,96,96,96,96,96,96,96,96,96,96,96,96,96,96,96,96,96,96,96,96,96,96,96,3,2,
2,2,4,1,3,96,96,96,96,96,96,96,96,96,96,96,96,96,96,96,96,96,96,96,96,96,96,96,96,96,96,96,96,96,96,96,96,96,96,96,96,96,96,96,96,96,96,96,1,3,
4,1,3,4,4,96,96,96,96,96,96,96,96,96,96,96,96,96,96,96,96,96,96,96,96,96,96,96,96,96,96,96,96,96,96,96,96,96,96,96,96,96,96,96,96,96,96,96,3,1,
2,3,4,4,1,96,96,96,96,96,96,96,96,96,96,96,96,96,96,96,96,96,96,96,96,96,96,96,96,96,96,96,96,96,96,96,96,96,96,96,96,96,96,96,96,96,96,96,4,1,
1,1,3,4,3,96,96,96,96,96,96,96,96,96,96,96,96,96,96,96,96,96,96,96,96,96,96,96,96,96,96,96,96,96,96,96,96,96,96,96,96,96,96,96,96,96,96,96,1,1,
1,1,3,3,2,96,96,96,96,96,96,96,96,96,96,96,96,96,96,96,96,96,96,96,96,96,96,96,96,96,96,96,96,96,96,96,96,96,96,96,96,96,96,96,96,96,96,96,4,1,
1,2,96,96,96,96,96,96,96,96,96,96,96,96,96,96,96,96,96,96,96,96,96,96,96,96,96,96,96,96,96,96,96,96,96,96,96,96,96,96,96,96,96,96,96,96,96,2,4,4,
3,2,96,96,96,96,96,96,96,96,96,96,96,96,96,96,96,96,96,96,96,96,96,96,96,96,96,96,96,96,96,96,96,96,96,96,96,96,96,96,96,96,96,96,96,96,96,2,1,1,
4,3,96,96,96,96,96,96,96,96,96,96,96,96,96,96,96,96,96,96,96,96,96,96,96,96,96,96,96,96,96,96,96,96,96,96,96,96,96,96,96,96,96,96,96,96,96,2,1,6,
3,4,96,96,96,96,96,96,96,96,96,96,96,96,96,96,96,96,96,96,96,96,96,96,96,96,96,96,96,96,96,96,96,96,96,96,96,96,96,96,96,96,96,96,96,96,96,5,6,3,
3,3,96,96,96,96,96,96,96,96,96,96,96,96,96,96,96,96,96,96,96,96,96,96,96,96,96,96,96,96,96,96,96,96,96,96,96,96,96,96,96,96,96,96,96,96,96,1,2,1,
1,3,96,96,96,96,96,96,96,96,96,96,96,96,96,96,96,96,96,96,96,96,96,96,96,96,96,96,96,96,96,96,96,96,96,96,96,96,96,96,96,96,96,96,96,96,96,2,1,2,
4,3,96,96,96,96,96,96,96,96,96,96,96,96,96,96,96,96,96,96,96,96,96,96,96,96,96,96,96,96,96,96,96,96,96,96,96,96,96,96,96,96,96,96,96,96,96,3,4,3,
4,1,96,96,96,96,96,96,96,96,96,96,96,96,96,96,96,96,96,96,96,96,96,96,96,96,96,96,96,96,96,96,96,96,96,96,96,96,96,96,96,96,96,96,96,96,96,4,6,2,
4,3,96,96,96,96,96,96,96,96,96,96,96,96,96,96,96,96,96,96,96,96,96,96,96,96,96,96,96,96,96,96,96,96,96,96,96,96,96,96,96,96,96,96,96,96,96,2,5,3,
2,4,96,96,96,96,96,96,96,96,96,96,96,96,96,96,96,96,96,96,96,96,96,96,96,96,96,96,96,96,96,96,96,96,96,96,96,96,96,96,96,96,96,96,96,96,96,3,6,5,
4,3,96,96,96,96,96,96,96,96,96,96,96,96,96,96,96,96,96,96,96,96,96,96,96,96,96,96,96,96,96,96,96,96,96,96,96,96,96,96,96,96,96,96,96,96,96,1,3,2,
3,4,96,96,96,96,96,96,96,96,96,96,96,96,96,96,96,96,96,96,96,96,96,96,96,96,96,96,96,96,96,96,96,96,96,96,96,96,96,96,96,96,96,96,96,96,96,4,1,3,
3,1,96,96,96,96,96,96,96,96,96,96,96,96,96,96,96,96,96,96,96,96,96,96,96,96,96,96,96,96,96,96,96,96,96,96,96,96,96,96,96,96,96,96,96,96,96,3,3,4,
4,4,96,96,96,96,96,96,96,96,96,96,96,96,96,96,96,96,96,96,96,96,96,96,96,96,96,96,96,96,96,96,96,96,96,96,96,96,96,96,96,96,96,96,96,96,96,3,3,3,
3,2,96,96,96,96,96,96,96,96,96,96,96,96,96,96,96,96,96,96,96,96,96,96,96,96,96,96,96,96,96,96,96,96,96,96,96,96,96,96,96,96,96,96,96,96,96,3,3,3,
4,3,96,96,96,96,96,96,96,96,96,96,96,96,96,96,96,96,96,96,96,96,96,96,96,96,96,96,96,96,96,96,96,96,96,96,96,96,96,96,96,96,96,96,96,96,96,3,4,2,
4,2,96,96,96,96,96,96,96,96,96,96,96,96,96,96,96,96,96,96,96,96,96,96,96,96,96,96,96,96,96,96,96,96,96,96,96,96,96,96,96,96,96,96,96,96,96,3,1,4,
2,3,1,2,3,3,4,3,3,2,2,3,1,4,1,2,2,1,2,4,3,4,3,1,3,3,1,2,3,4,3,3,4,2,4,4,1,4,3,4,3,4,3,2,2,2,3,4,2,2,
5,5,6,5,6,5,6,6,6,2,1,3,4,4,2,1,2,1,2,2,3,2,1,3,3,1,2,1,2,4,3,4,4,3,2,4,4,3,1,2,3,4,2,3,4,4,3,2,3,1,
4,4,3,2,4,4,2,3,3,5,1,3,2,2,2,1,6,5,1,2,2,1,4,2,2,2,2,1,1,3,4,1,4,1,6,5,5,5,5,5,5,2,2,1,4,4,3,4,3,1,
4,4,1,3,4,3,4,3,1,2,4,3,3,3,5,5,6,5,5,6,4,4,4,4,3,4,1,3,2,3,4,5,6,6,6,6,6,5,5,6,6,6,3,1,1,1,4,1,2,2,
3,2,3,3,5,6,4,4,4,2,4,4,4,1,5,6,6,6,5,5,5,6,5,5,6,6,6,5,6,6,5,6,6,5,6,6,5,5,5,6,6,6,4,4,3,1,2,1,1,2,
4,1,4,2,6,5,6,5,4,4,4,1,6,5,6,6,6,6,6,5,6,6,5,6,6,6,5,5,5,5,6,6,6,5,6,5,5,6,5,6,5,3,1,1,6,5,6,1,4,4,
2,1,3,3,5,5,5,5,5,5,5,6,6,6,5,5,6,6,6,5,5,6,5,6,5,6,6,5,5,5,6,5,5,6,6,6,6,6,5,6,5,6,6,6,5,6,6,4,1,1,
3,4,3,3,4,6,5,3,3,4,5,5,5,5,5,6,6,5,5,5,5,5,6,6,6,6,5,5,6,6,6,6,5,5,6,5,6,6,5,6,6,5,6,6,4,1,4,2,4,2
</data>
 </layer>
 <layer id="1" name="walls" width="50" height="50">
  <data encoding="csv">
0,0,0,0,0,0,0,0,0,0,0,0,0,0,0,0,0,0,0,0,0,0,0,0,0,0,0,0,0,0,0,0,0,0,0,0,0,0,0,0,0,0,0,0,0,0,0,0,0,0,
0,181,182,0,0,118,120,120,120,120,120,120,120,121,120,120,120,120,120,120,120,120,120,120,120,120,120,120,120,120,120,120,120,121,120,120,120,121,120,120,120,121,120,120,120,120,120,119,0,0,
0,208,209,0,0,147,0,0,0,0,0,0,0,147,0,0,0,0,0,0,0,0,0,0,0,0,0,0,0,0,0,0,0,147,0,0,0,147,0,0,0,147,0,0,0,0,0,147,0,0,
0,0,0,0,0,147,0,0,0,0,0,0,0,147,0,0,0,0,0,0,0,0,0,0,0,0,0,0,0,0,0,0,0,147,0,0,0,147,0,0,0,147,0,0,0,0,0,147,0,0,
0,0,0,0,0,147,0,0,0,0,0,0,0,147,0,0,0,0,0,0,0,0,0,0,0,0,0,0,0,0,0,0,0,147,0,0,0,147,0,0,0,147,0,0,0,0,0,147,0,0,
0,0,0,0,0,147,0,0,0,0,0,0,0,147,0,0,0,0,0,0,0,0,0,0,0,0,0,0,0,0,0,0,0,145,123,0,151,122,123,0,151,122,123,0,0,0,151,149,0,0,
0,0,0,0,0,147,0,0,0,0,0,0,0,124,0,0,0,0,0,0,0,0,0,0,0,0,0,0,0,0,0,0,0,0,0,0,0,0,0,0,0,0,0,0,0,0,0,147,0,0,
0,0,0,0,0,147,0,0,0,0,0,0,0,0,0,0,0,0,0,0,0,0,0,0,0,0,0,0,0,0,0,0,0,0,0,0,0,0,0,0,0,0,0,0,0,0,0,147,0,0,
0,0,0,0,0,147,0,0,0,0,0,0,0,0,0,0,0,0,0,0,0,0,0,0,0,0,0,0,0,0,0,0,0,0,0,0,0,0,0,0,0,0,0,0,0,0,0,147,0,0,
0,0,0,0,0,147,0,0,0,0,0,0,0,0,0,0,0,0,0,0,0,0,0,0,0,0,0,0,0,0,0,0,0,0,0,0,0,0,0,0,0,0,0,0,0,0,0,147,0,0,
0,0,0,0,0,147,0,0,0,0,0,0,0,150,0,0,0,0,0,0,0,0,0,0,0,0,0,0,0,0,0,0,0,150,0,0,0,0,0,0,0,0,0,0,0,0,0,147,0,0,
0,0,0,0,0,147,0,0,0,0,0,0,0,147,0,0,0,0,0,0,0,0,0,0,0,0,0,0,0,0,0,0,0,147,0,0,0,0,0,0,0,0,0,0,0,0,0,147,0,0,
0,0,0,0,0,147,0,0,0,0,0,0,0,147,0,0,0,0,0,0,0,0,0,0,0,0,0,0,0,0,0,0,0,147,0,0,0,0,0,0,0,0,0,0,0,0,0,147,0,0,
0,0,0,0,0,148,120,123,0,0,0,0,151,122,120,121,120,123,0,0,0,151,120,121,120,120,120,120,121,120,120,120,120,179,123,0,151,121,123,0,151,121,123,0,0,0,151,149,0,0,
0,0,0,0,0,147,0,0,0,0,0,0,0,0,0,147,0,0,0,0,0,0,0,124,0,0,0,0,147,0,0,0,0,147,0,0,0,147,0,0,0,147,0,0,0,0,0,147,0,0,
0,0,0,0,0,147,0,0,0,0,0,0,0,0,0,147,0,0,0,0,0,0,0,0,0,0,0,0,147,0,0,0,0,147,0,0,0,147,0,0,0,147,0,0,0,0,0,147,0,0,
0,0,0,0,0,147,0,0,0,0,0,0,0,0,0,147,0,0,0,0,0,0,0,0,0,0,0,0,147,0,0,0,0,147,0,0,0,147,0,0,0,147,0,0,0,0,0,147,0,0,
0,0,0,0,0,147,0,0,0,0,0,0,0,0,0,147,0,0,0,0,0,0,0,150,0,0,0,0,147,0,0,0,0,147,0,0,0,147,0,0,0,147,0,0,0,0,0,147,0,0,
0,0,0,0,0,147,0,0,0,0,0,0,0,0,0,147,0,0,0,0,0,0,0,148,120,120,120,120,122,123,0,0,151,122,120,120,120,122,120,120,120,122,120,120,120,120,120,149,0,0,
0,181,182,0,0,147,0,0,0,0,0,0,0,0,0,148,120,120,120,120,120,120,120,149,0,0,0,0,0,0,0,0,0,0,0,0,0,0,0,0,0,0,0,0,0,0,0,147,0,0,
0,208,209,0,0,147,0,0,0,0,0,0,0,0,0,147,0,0,0,0,0,0,0,147,0,0,0,0,0,0,0,0,0,0,0,0,0,0,0,0,0,0,0,0,0,0,0,147,0,0,
0,0,0,0,0,147,0,0,0,0,0,0,0,0,0,147,0,0,0,0,0,0,0,147,0,0,0,0,0,0,0,0,0,0,0,0,0,0,0,0,0,0,0,0,0,0,0,147,0,0,
0,0,0,0,0,147,0,0,0,0,0,0,0,0,0,147,0,0,0,0,0,0,0,147,0,0,0,0,0,0,0,0,0,0,0,0,0,0,0,0,0,0,0,0,0,0,0,147,0,0,
0,0,0,0,0,147,0,0,0,0,0,0,0,0,0,147,0,0,0,0,0,0,0,147,0,0,0,0,0,0,0,0,0,0,0,0,0,0,0,0,0,0,0,0,0,0,0,147,0,0,
0,0,0,0,0,147,0,0,0,0,0,0,0,0,0,147,0,0,0,0,0,0,0,148,120,120,120,120,120,120,120,120,120,120,120,120,123,0,0,0,0,0,151,120,120,120,121,146,0,0,
0,0,118,120,120,146,0,0,0,0,0,0,0,0,0,147,0,0,0,0,0,0,0,147,0,0,0,0,0,0,0,0,0,0,0,0,0,0,0,0,0,0,0,0,0,0,147,0,0,0,
0,0,147,0,0,0,0,0,0,0,0,0,0,0,0,147,0,0,0,0,0,0,0,147,0,0,0,0,0,0,0,0,0,0,0,0,0,0,0,0,0,0,0,0,0,0,147,0,0,0,
0,0,147,0,0,0,0,0,0,0,0,0,0,0,0,147,0,0,0,0,0,0,0,147,0,0,0,0,0,0,0,0,0,0,0,0,0,0,0,0,0,0,0,0,0,0,147,0,0,0,
0,0,147,0,0,0,0,0,0,0,0,0,0,0,0,147,0,0,0,0,0,0,0,147,0,0,0,0,0,0,0,0,0,0,0,0,0,0,0,0,0,0,0,0,0,0,147,0,0,0,
0,0,147,0,0,0,0,0,0,0,0,0,0,0,0,147,0,0,0,0,0,0,0,147,0,0,0,0,0,0,0,0,0,0,0,0,0,0,0,0,0,0,0,0,0,0,147,0,0,0,
0,0,147,0,0,0,0,0,0,0,0,0,0,0,0,147,0,0,0,0,0,0,0,145,120,120,120,119,0,0,0,0,0,0,0,0,0,0,0,0,0,0,0,0,0,0,147,0,0,0,
0,0,147,0,0,0,0,0,0,0,0,0,0,0,0,147,0,0,0,0,0,0,0,0,0,0,0,147,0,0,0,0,0,0,0,0,0,0,0,0,0,0,0,0,0,0,147,0,0,0,
0,0,147,0,0,0,0,0,0,0,0,0,0,0,0,147,0,0,0,0,0,0,0,0,0,0,0,147,0,0,0,0,0,0,0,0,0,0,0,0,0,0,0,0,0,0,147,0,0,0,
0,0,147,0,0,0,0,0,0,0,0,0,0,0,0,124,0,0,0,0,0,0,0,0,0,0,0,124,0,0,0,0,0,0,0,0,0,0,0,0,0,0,0,0,0,0,147,0,0,0,
0,0,147,0,0,0,0,0,0,0,0,0,0,0,0,0,0,0,0,0,0,0,0,0,0,0,0,0,0,0,0,0,0,0,0,0,0,0,0,0,0,0,0,0,0,0,147,0,0,0,
0,0,147,0,0,0,0,0,0,0,0,0,0,0,0,0,0,0,0,0,0,0,0,0,0,0,0,0,0,0,0,0,0,0,0,0,0,0,0,0,0,0,0,0,0,0,147,0,0,0,
0,0,147,0,0,0,0,0,0,0,0,0,0,0,0,0,0,0,0,0,0,0,0,0,0,0,0,0,0,0,0,0,0,0,0,0,0,0,0,0,0,0,0,0,0,0,147,0,0,0,
0,0,147,0,0,0,0,0,0,0,0,0,0,0,0,0,0,0,0,0,0,0,0,0,0,0,0,0,0,0,0,0,0,0,0,0,0,0,0,0,0,0,0,0,0,0,147,0,0,0,
0,0,147,0,0,0,0,0,0,0,0,0,0,0,0,150,0,0,0,0,0,0,0,0,0,0,0,150,0,0,0,0,0,0,0,0,0,0,0,0,0,0,0,0,0,0,147,0,0,0,
0,0,147,0,0,0,0,0,0,0,0,0,0,0,0,147,0,0,0,0,0,0,0,0,0,0,0,147,0,0,0,0,0,0,0,0,0,0,0,0,0,0,0,0,0,0,147,0,0,0,
0,0,147,0,0,0,0,0,0,0,0,0,0,0,0,147,0,0,0,0,0,0,0,0,0,0,0,147,0,0,0,0,0,0,0,0,0,0,0,0,0,0,0,0,0,0,147,0,0,0,
0,0,145,120,120,120,120,120,120,120,120,120,120,120,120,122,120,120,120,120,120,120,120,120,120,120,120,122,120,120,120,120,120,120,120,120,120,120,120,120,120,120,120,120,120,120,146,0,0,0,
0,0,0,0,0,0,0,0,0,0,0,0,0,0,0,0,0,0,0,0,0,0,0,0,0,0,0,0,0,0,0,0,0,0,0,0,0,0,0,0,0,0,0,0,0,0,0,0,0,0,
0,0,0,0,0,0,0,0,0,0,0,0,0,0,0,0,0,0,0,0,0,0,0,0,0,0,0,0,0,0,0,0,0,0,0,0,0,0,0,0,0,0,0,0,0,0,0,0,0,0,
0,0,0,0,0,0,0,0,0,0,0,0,0,0,0,0,0,0,0,0,0,0,0,0,0,0,0,0,0,0,0,0,0,0,0,0,0,0,0,0,0,0,0,0,0,0,181,182,0,0,
0,181,182,0,0,0,0,0,0,0,0,0,0,0,0,0,0,0,0,0,0,0,0,0,0,0,0,0,0,0,0,0,0,0,0,0,0,0,0,0,0,0,0,0,0,0,208,209,0,0,
0,208,209,0,0,0,0,0,0,0,0,0,0,0,0,0,0,0,0,0,0,0,0,0,0,0,0,0,0,0,0,0,0,0,0,0,0,0,0,0,0,0,0,0,0,0,0,0,0,0,
0,0,0,0,0,0,0,0,0,0,0,0,0,0,0,0,0,0,0,0,0,0,0,0,0,0,0,0,0,0,0,0,0,0,0,0,0,0,0,0,0,0,0,0,0,0,0,0,0,0,
0,0,0,0,0,0,0,0,0,0,0,0,0,0,0,0,0,0,0,0,0,0,0,0,0,0,0,0,0,0,0,0,0,0,0,0,0,0,0,0,0,0,0,0,0,0,0,0,0,0,
0,0,0,0,0,0,0,0,0,0,0,0,0,0,0,0,0,0,0,0,0,0,0,0,0,0,0,0,0,0,0,0,0,0,0,0,0,0,0,0,0,0,0,0,0,0,0,0,0,0
</data>
 </layer>
 <layer id="3" name="decorations" width="50" height="50">
  <data encoding="csv">
0,0,0,0,0,0,0,0,0,0,0,0,0,0,0,0,0,0,0,0,0,0,0,0,0,0,0,0,0,0,0,0,0,0,0,0,0,0,0,0,0,0,0,0,0,0,0,0,0,0,
0,0,0,0,0,0,0,0,0,0,0,0,0,0,0,0,0,0,0,0,0,0,0,0,0,0,0,0,0,0,0,0,0,0,0,0,0,0,0,0,0,0,0,0,0,0,0,0,0,0,
0,0,0,0,0,0,0,0,0,0,0,0,0,0,0,0,0,0,0,0,0,0,0,0,0,0,0,0,0,0,0,0,0,0,0,0,0,0,0,0,0,0,0,0,0,0,0,0,0,0,
0,0,0,0,0,0,0,0,0,0,0,0,0,0,0,0,0,0,0,0,0,0,0,0,0,0,0,0,0,0,0,0,0,0,0,0,0,0,0,0,0,0,0,0,0,0,0,0,0,0,
0,0,0,0,0,0,0,0,0,0,0,0,0,0,0,0,0,0,0,0,0,0,0,0,0,0,0,0,0,0,0,0,0,0,0,0,0,0,0,0,0,0,0,0,0,0,0,0,0,0,
0,0,0,0,0,0,0,0,0,0,0,0,0,0,0,0,0,0,0,0,0,0,0,0,0,0,0,0,0,0,0,0,0,0,0,0,0,0,0,0,0,0,0,0,0,0,0,0,0,0,
0,0,0,0,0,0,0,0,0,0,0,0,0,0,0,0,0,0,0,0,0,0,0,0,0,0,0,0,0,0,0,0,0,0,0,0,0,0,0,0,0,0,0,0,0,0,0,0,0,0,
0,0,0,0,0,0,0,0,0,0,0,0,0,0,0,0,0,0,0,0,0,0,0,0,0,0,0,0,0,0,0,0,0,0,0,0,0,0,0,0,0,0,0,0,0,0,0,0,0,0,
0,0,0,0,0,0,0,0,0,0,0,0,0,0,0,0,0,0,0,0,0,0,0,0,0,0,0,0,0,0,0,0,0,0,0,0,0,0,0,0,0,0,0,0,0,0,0,0,0,0,
0,0,0,0,0,0,0,0,0,0,0,0,0,0,0,0,0,0,0,0,0,0,0,0,0,0,0,0,0,0,0,0,0,0,0,0,0,0,0,0,0,0,0,0,0,0,0,0,0,0,
0,0,0,0,0,0,0,0,0,0,0,0,0,0,0,0,0,0,0,0,0,0,0,0,0,0,0,0,0,0,0,0,0,0,0,0,0,0,0,0,0,0,0,0,0,0,0,0,0,0,
0,0,0,0,0,0,0,0,0,0,0,0,0,0,0,0,0,0,0,0,0,0,0,0,0,0,0,0,0,0,0,0,0,0,0,0,0,0,0,0,0,0,0,0,0,0,0,0,0,0,
0,0,0,0,0,0,0,0,0,0,0,0,0,0,0,0,0,0,0,0,0,0,0,0,0,0,0,0,0,0,0,0,0,0,0,0,0,0,0,0,0,0,0,0,0,0,0,0,0,0,
0,0,0,0,0,0,0,0,0,0,0,0,0,0,0,0,0,0,0,0,0,0,0,0,0,0,0,0,0,0,0,0,0,0,0,0,0,0,0,0,0,0,0,0,0,0,0,0,0,0,
0,0,0,0,0,0,0,0,0,0,0,0,0,0,0,0,0,0,0,0,0,0,0,0,0,0,0,0,0,0,0,0,0,0,0,0,0,0,0,0,0,0,0,0,0,0,0,0,0,0,
0,0,0,0,0,0,0,0,0,0,0,0,0,0,0,0,0,0,0,0,0,0,0,0,0,0,0,0,0,0,0,0,0,0,0,0,0,0,0,0,0,0,0,0,0,0,0,0,0,0,
0,0,0,0,0,0,0,0,0,0,0,0,0,0,0,0,0,0,0,0,0,0,0,0,0,0,0,0,0,0,0,0,0,0,0,0,0,0,0,0,0,0,0,0,0,0,0,0,0,0,
0,0,0,0,0,0,0,0,0,0,0,0,0,0,0,0,0,0,0,0,0,0,0,0,0,0,0,0,0,0,0,0,0,0,0,0,0,0,0,0,0,0,0,0,0,0,0,0,0,0,
0,0,0,0,0,0,0,0,0,0,0,0,0,0,0,0,0,0,0,0,0,0,0,0,0,0,0,0,0,0,0,0,0,0,0,0,0,0,0,0,0,0,0,0,0,0,0,0,0,0,
0,0,0,0,0,0,0,0,0,0,0,0,0,0,0,0,0,0,0,0,0,0,0,0,0,0,0,0,0,0,0,0,0,0,0,0,0,0,0,0,0,0,0,0,0,0,0,0,0,0,
0,0,0,0,0,0,0,0,0,0,0,0,0,0,0,0,0,0,0,0,0,0,0,0,0,0,0,0,0,0,0,0,0,0,0,0,0,0,0,0,0,0,0,0,0,0,0,0,0,0,
0,0,0,0,0,0,0,0,0,0,0,0,0,0,0,0,0,0,0,0,0,0,0,0,0,0,0,0,0,0,0,0,0,0,0,0,0,0,0,0,0,0,0,0,0,0,0,0,0,0,
0,0,0,0,0,0,0,0,0,0,0,0,0,0,0,0,0,0,0,0,0,0,0,0,0,0,0,0,0,0,0,0,0,0,0,0,0,0,0,0,0,0,0,0,0,0,0,0,0,0,
0,0,0,0,0,0,0,0,0,0,0,0,0,0,0,0,0,0,0,0,0,0,0,0,0,0,0,0,0,0,0,0,0,0,0,0,0,0,0,0,0,0,0,0,0,0,0,0,0,0,
0,0,0,0,0,0,0,0,0,0,0,0,0,0,0,0,0,0,0,0,0,0,0,0,0,0,0,0,0,0,0,0,0,0,0,0,0,0,0,0,0,0,0,0,0,0,0,0,0,0,
0,0,0,0,0,0,0,0,0,0,0,0,0,0,0,0,0,0,0,0,0,0,0,0,0,0,0,0,0,0,0,0,0,0,0,0,0,0,0,0,0,0,0,0,0,0,0,0,0,0,
0,0,0,0,0,0,0,0,0,0,0,0,0,0,0,0,0,0,0,0,0,0,0,0,0,0,0,0,0,0,0,0,0,0,0,0,0,0,0,0,0,0,0,0,0,0,0,0,0,0,
0,0,0,0,0,0,0,0,0,0,0,0,0,0,0,0,0,0,0,0,0,0,0,0,0,0,0,0,0,0,0,0,0,0,0,0,0,0,0,0,0,0,0,0,0,0,0,0,0,0,
0,0,0,0,0,0,0,0,0,0,0,0,0,0,0,0,0,0,0,0,0,0,0,0,0,0,0,0,0,0,0,0,0,0,0,0,0,0,0,0,0,0,0,0,0,0,0,0,0,0,
0,0,0,0,0,0,0,0,0,0,0,0,0,0,0,0,0,0,0,0,0,0,0,0,0,0,0,0,0,0,0,0,0,0,0,0,0,0,0,0,0,0,0,0,0,0,0,0,0,0,
0,0,0,0,0,0,0,0,0,0,0,0,0,0,0,0,0,0,0,0,0,0,0,0,0,0,0,0,0,0,0,0,0,0,0,0,0,0,0,0,0,0,0,0,0,0,0,0,0,0,
0,0,0,0,0,0,0,0,0,0,0,0,0,0,0,0,0,0,0,0,0,0,0,0,0,0,0,0,0,0,0,0,0,0,0,0,0,0,0,0,0,0,0,0,0,0,0,0,0,0,
0,0,0,0,0,0,0,0,0,0,0,0,0,0,0,0,0,0,0,0,0,0,0,0,0,0,0,0,0,0,0,0,0,0,0,0,0,0,0,0,0,0,0,0,0,0,0,0,0,0,
0,0,0,0,0,0,0,0,0,0,0,0,0,0,0,0,0,0,0,0,0,0,0,0,0,0,0,0,0,0,0,0,0,0,0,0,0,0,0,0,0,0,0,0,0,0,0,0,0,0,
0,0,0,0,0,0,0,0,0,0,0,0,0,0,0,0,0,0,0,0,0,0,0,0,0,0,0,0,0,0,0,0,0,0,0,0,0,0,0,0,0,0,0,0,0,0,0,0,0,0,
0,0,0,0,0,0,0,0,0,0,0,0,0,0,0,0,0,0,0,0,0,0,0,0,0,0,0,0,0,0,0,0,0,0,0,0,0,0,0,0,0,0,0,0,0,0,0,0,0,0,
0,0,0,0,0,0,0,0,0,0,0,0,0,0,0,0,0,0,0,0,0,0,0,0,0,0,0,0,0,0,0,0,0,0,0,0,0,0,0,0,0,0,0,0,0,0,0,0,0,0,
0,0,0,0,0,0,0,0,0,0,0,0,0,0,0,0,0,0,0,0,0,0,0,0,0,0,0,0,0,0,0,0,0,0,0,0,0,0,0,0,0,0,0,0,0,0,0,0,0,0,
0,0,0,0,0,0,0,0,0,0,0,0,0,0,0,0,0,0,0,0,0,0,0,0,0,0,0,0,0,0,0,0,0,0,0,0,0,0,0,0,0,0,0,0,0,0,0,0,0,0,
0,0,0,0,0,0,0,0,0,0,0,0,0,0,0,0,0,0,0,0,0,0,0,0,0,0,0,0,0,0,0,0,0,0,0,0,0,0,0,0,0,0,0,0,0,0,0,0,0,0,
0,0,0,0,0,0,0,0,0,0,0,0,0,0,0,0,0,0,0,0,0,0,0,0,0,0,0,0,0,0,0,0,0,0,0,0,0,0,0,0,0,0,0,0,0,0,0,0,0,0,
0,0,0,0,0,0,0,0,0,0,0,0,0,0,0,0,0,0,0,0,0,0,0,0,0,0,0,0,0,0,0,0,0,0,0,0,0,0,0,0,0,0,0,0,0,0,0,0,0,0,
0,0,0,0,0,0,0,0,0,0,0,0,0,0,0,0,0,0,0,0,0,0,0,0,0,0,0,0,0,0,0,0,0,0,0,0,0,0,0,0,0,0,0,0,0,0,0,0,0,0,
0,0,0,0,0,0,0,0,0,0,0,0,0,0,0,0,0,0,0,0,0,0,0,0,0,0,0,0,0,0,0,0,0,0,0,0,0,0,0,0,0,0,0,0,0,0,0,0,0,0,
0,0,0,0,0,0,0,0,0,0,0,0,0,0,0,0,0,0,0,0,0,0,0,0,0,0,0,0,0,0,0,0,0,0,0,0,0,0,0,0,0,0,0,0,0,0,0,0,0,0,
0,0,0,0,0,0,0,0,0,0,0,0,0,0,0,0,0,0,0,0,0,0,0,0,0,0,0,0,0,0,0,0,0,0,0,0,0,0,0,0,0,0,0,0,0,0,0,0,0,0,
0,0,0,0,0,0,0,0,0,0,0,0,0,0,0,0,0,0,0,0,0,0,0,0,0,0,0,0,0,0,0,0,0,0,0,0,0,0,0,0,0,0,0,0,0,0,0,0,0,0,
0,0,0,0,0,0,0,0,0,0,0,0,0,0,0,0,0,0,0,0,0,0,0,0,0,0,0,0,0,0,0,0,0,0,0,0,0,0,0,0,0,0,0,0,0,0,0,0,0,0,
0,0,0,0,0,0,0,0,0,0,0,0,0,0,0,0,0,0,0,0,0,0,0,0,0,0,0,0,0,0,0,0,0,0,0,0,0,0,0,0,0,0,0,0,0,0,0,0,0,0,
0,0,0,0,0,0,0,0,0,0,0,0,0,0,0,0,0,0,0,0,0,0,0,0,0,0,0,0,0,0,0,0,0,0,0,0,0,0,0,0,0,0,0,0,0,0,0,0,0,0
</data>
 </layer>
 <objectgroup id="4" name="room triggers">
  <object id="2" name="Room1" x="1552" y="1230" width="1442" height="294"/>
  <object id="3" name="Room2" x="1804" y="1618" width="1124" height="994"/>
  <object id="4" name="Room3" x="1434" y="2002" width="286" height="614"/>
  <object id="5" name="Room4" x="396.97" y="915.152" width="542.424" height="1693.94"/>
  <object id="6" name="Room5" x="389.333" y="142.667" width="434.667" height="677.333"/>
  <object id="7" name="Room6" x="910" y="146" width="1194" height="672"/>
  <object id="8" name="Room7" x="2189.33" y="398.667" width="806.667" height="422.667"/>
 </objectgroup>
 <objectgroup id="5" name="spawn points">
  <object id="23" name="Enemy spawn" type="Spawn point" x="2896" y="1468">
   <properties>
    <property name="Room" value="Room1"/>
   </properties>
   <point/>
  </object>
  <object id="24" name="Player spawn" type="Spawn point" x="1984" y="1024">
   <point/>
  </object>
  <object id="25" name="Enemy spawn" type="Spawn point" x="2878.67" y="1324">
   <properties>
    <property name="Room" value="Room1"/>
   </properties>
   <point/>
  </object>
  <object id="26" name="Enemy spawn" type="Spawn point" x="2782.67" y="1497.33">
   <properties>
    <property name="Room" value="Room1"/>
   </properties>
   <point/>
  </object>
  <object id="27" name="Enemy spawn" type="Spawn point" x="2769.33" y="1362.67">
   <properties>
    <property name="Room" value="Room1"/>
   </properties>
   <point/>
  </object>
  <object id="28" name="Enemy spawn" type="Spawn point" x="1610" y="1488">
   <properties>
    <property name="Room" value="Room1"/>
   </properties>
   <point/>
  </object>
  <object id="29" name="Enemy spawn" type="Spawn point" x="2848" y="2548">
   <properties>
    <property name="Room" value="Room2"/>
   </properties>
   <point/>
  </object>
  <object id="30" name="Enemy spawn" type="Spawn point" x="2608" y="2550">
   <properties>
    <property name="Room" value="Room2"/>
   </properties>
   <point/>
  </object>
  <object id="31" name="Enemy spawn" type="Spawn point" x="1964" y="2526">
   <properties>
    <property name="Room" value="Room2"/>
   </properties>
   <point/>
  </object>
  <object id="32" name="Enemy spawn" type="Spawn point" x="2196" y="2542">
   <properties>
    <property name="Room" value="Room2"/>
   </properties>
   <point/>
  </object>
  <object id="33" name="Enemy spawn" type="Spawn point" x="1618" y="1700">
   <properties>
    <property name="Room" value="Room2"/>
   </properties>
   <point/>
  </object>
  <object id="34" name="Enemy spawn" type="Spawn point" x="1646" y="1838">
   <properties>
    <property name="Room" value="Room2"/>
   </properties>
   <point/>
  </object>
  <object id="35" name="Enemy spawn" type="Spawn point" x="1156" y="1416">
   <properties>
    <property name="Room" value="Room3"/>
   </properties>
   <point/>
  </object>
  <object id="36" name="Enemy spawn" type="Spawn point" x="1358" y="1404">
   <properties>
    <property name="Room" value="Room3"/>
   </properties>
   <point/>
  </object>
  <object id="37" name="Enemy spawn" type="Spawn point" x="1102" y="2140">
   <properties>
    <property name="Room" value="Room3"/>
   </properties>
   <point/>
  </object>
  <object id="38" name="Enemy spawn" type="Spawn point" x="1108" y="2528">
   <properties>
    <property name="Room" value="Room3"/>
   </properties>
   <point/>
  </object>
  <object id="39" name="Enemy spawn" type="Spawn point" x="281.818" y="1784.85">
   <properties>
    <property name="Room" value="Room4"/>
   </properties>
   <point/>
  </object>
  <object id="40" name="Enemy spawn" type="Spawn point" x="281.818" y="2075.76">
   <properties>
    <property name="Room" value="Room4"/>
   </properties>
   <point/>
  </object>
  <object id="41" name="Enemy spawn" type="Spawn point" x="278.788" y="2424.24">
   <properties>
    <property name="Room" value="Room4"/>
   </properties>
   <point/>
  </object>
  <object id="42" name="Enemy spawn" type="Spawn point" x="863.636" y="1178.79">
   <properties>
    <property name="Room" value="Room4"/>
   </properties>
   <point/>
  </object>
  <object id="43" name="Enemy spawn" type="Spawn point" x="563.636" y="1236.36">
   <properties>
    <property name="Room" value="Room4"/>
   </properties>
   <point/>
  </object>
  <object id="44" name="Enemy spawn" type="Spawn point" x="730.303" y="1424.24">
   <properties>
    <property name="Room" value="Room4"/>
   </properties>
   <point/>
  </object>
  <object id="45" name="Enemy spawn" type="Spawn point" x="512.121" y="287.879">
   <properties>
    <property name="Room" value="Room5"/>
   </properties>
   <point/>
  </object>
  <object id="46" name="Enemy spawn" type="Spawn point" x="736.364" y="290.909">
   <properties>
    <property name="Room" value="Room5"/>
   </properties>
   <point/>
  </object>
  <object id="47" name="Enemy spawn" type="Spawn point" x="1980" y="238">
   <properties>
    <property name="Room" value="Room6"/>
   </properties>
   <point/>
  </object>
  <object id="48" name="Enemy spawn" type="Spawn point" x="1072" y="238">
   <properties>
    <property name="Room" value="Room6"/>
   </properties>
   <point/>
  </object>
  <object id="49" name="Enemy spawn" type="Spawn point" x="1030" y="722">
   <properties>
    <property name="Room" value="Room6"/>
   </properties>
   <point/>
  </object>
  <object id="50" name="Enemy spawn" type="Spawn point" x="1956" y="722">
   <properties>
    <property name="Room" value="Room6"/>
   </properties>
   <point/>
  </object>
  <object id="51" name="Enemy spawn" type="Spawn point" x="1280" y="864">
   <properties>
    <property name="Room" value="Room6"/>
   </properties>
   <point/>
  </object>
  <object id="52" name="Enemy spawn" type="Spawn point" x="2922.67" y="496">
   <properties>
    <property name="Room" value="Room7"/>
   </properties>
   <point/>
  </object>
  <object id="53" name="Enemy spawn" type="Spawn point" x="2916" y="777.333">
   <properties>
    <property name="Room" value="Room7"/>
   </properties>
   <point/>
  </object>
  <object id="54" name="Enemy spawn" type="Spawn point" x="2844" y="618.667">
   <properties>
    <property name="Room" value="Room7"/>
   </properties>
   <point/>
  </object>
  <object id="55" name="Hostage spawn" type="Spawn point" x="2268" y="1032">
   <point/>
  </object>
  <object id="56" name="Hostage spawn" type="Spawn point" x="2778.67" y="224">
   <point/>
  </object>
  <object id="57" name="Hostage spawn" type="Spawn point" x="2910" y="1066">
   <point/>
  </object>
 </objectgroup>
 <objectgroup id="6" name="elevator trigger">
  <object id="1" name="lvl2-3" x="1788.22" y="903.129" width="248" height="172" rotation="90"/>
 </objectgroup>
</map>
