<?xml version="1.0" encoding="UTF-8"?>
<map version="1.10" tiledversion="1.12.1" orientation="orthogonal" renderorder="right-down" width="70" height="60" tilewidth="64" tileheight="64" infinite="0" nextlayerid="8" nextobjectid="82">
 <tileset firstgid="1" source="../tiles/tiles_for_programming.tsx"/>
 <layer id="2" name="floor" width="70" height="60">
  <data encoding="csv">
3,2,1,3,1,2,1,4,3,3,1,1,6,5,5,6,6,3,5,4,1,4,1,1,3,4,2,4,2,1,4,2,4,3,4,6,6,1,1,3,1,2,2,4,4,6,1,4,3,3,2,3,4,4,1,3,3,2,5,5,6,5,5,1,1,3,1,2,2,4,
4,3,1,3,4,3,1,3,5,2,6,6,2,6,3,1,6,6,5,6,3,3,2,3,5,3,3,6,2,4,5,4,6,6,4,4,5,5,5,6,5,5,5,6,5,6,5,4,1,3,2,3,3,5,3,1,1,3,5,6,6,5,6,4,2,4,4,3,4,2,
3,2,1,4,3,2,1,1,5,5,6,5,5,5,3,5,6,6,5,6,5,6,5,6,5,5,5,6,6,1,6,5,5,6,5,6,5,6,3,3,1,6,1,5,3,1,5,3,2,5,5,6,6,6,6,4,3,6,5,6,5,6,4,2,1,1,1,4,2,4,
3,4,4,4,3,3,2,1,3,5,1,6,2,6,5,3,2,6,5,6,6,1,6,5,6,5,5,4,2,5,1,1,2,5,5,2,4,2,4,2,4,1,5,6,4,2,3,6,5,5,3,2,2,3,5,6,6,6,6,5,5,5,5,4,3,4,3,1,2,1,
4,2,1,3,4,3,1,5,3,5,5,2,6,6,2,4,1,1,3,3,4,2,3,1,3,1,1,1,4,3,3,3,1,3,4,2,1,3,1,4,3,3,1,4,2,1,3,2,2,4,1,4,1,1,1,6,5,5,1,5,6,6,5,4,2,4,4,4,3,2,
2,3,3,3,1,6,6,5,2,2,1,4,2,3,3,2,2,2,4,2,2,3,3,1,3,1,4,3,4,2,4,2,4,4,2,1,3,3,4,3,1,4,4,1,3,4,4,1,1,2,4,1,3,1,3,3,4,4,4,6,6,5,3,2,2,4,4,2,4,1,
3,2,1,3,3,3,3,5,6,5,6,1,2,4,4,93,93,93,93,93,93,93,93,93,93,93,93,93,93,93,93,93,93,93,93,93,93,93,93,93,93,93,93,93,93,93,93,93,93,93,93,93,93,93,93,93,93,93,1,5,6,5,5,5,2,2,4,3,1,3,
1,2,3,3,3,3,3,1,5,6,1,3,3,3,4,93,93,93,93,93,93,93,93,93,93,93,93,93,93,93,93,93,93,93,93,93,93,93,93,93,93,93,93,93,93,93,93,93,93,93,93,93,93,93,93,93,93,93,5,6,5,5,6,2,3,3,2,4,1,4,
4,3,3,4,3,5,6,5,6,6,4,3,2,1,3,93,93,93,93,93,93,93,93,93,93,93,93,93,93,93,93,93,93,93,93,93,93,93,93,93,93,93,93,93,93,93,93,93,93,93,93,93,93,93,93,93,93,93,6,5,5,5,6,1,1,3,4,3,2,4,
1,4,1,4,3,1,5,1,5,6,5,1,1,4,2,93,93,93,93,93,93,93,93,93,93,93,93,93,93,93,93,93,93,93,93,93,93,93,93,93,93,93,93,93,93,93,93,93,93,93,93,93,93,93,93,93,93,93,2,5,5,5,1,2,2,2,3,4,3,3,
2,1,4,3,2,6,5,4,5,5,6,5,4,1,4,93,93,93,93,93,93,93,93,93,93,93,93,93,93,93,93,93,93,93,93,93,93,93,93,93,93,93,93,93,93,93,93,93,93,93,93,93,93,93,93,93,93,93,4,5,5,5,4,4,3,1,2,1,4,3,
1,2,3,2,4,2,5,2,4,5,3,5,6,3,2,93,93,93,93,93,93,93,93,93,93,93,93,93,93,93,93,93,93,93,93,93,93,93,93,93,93,93,93,93,93,93,93,93,93,93,93,93,93,93,93,93,93,93,5,6,5,5,6,2,2,4,4,3,3,4,
3,2,1,2,3,2,6,2,5,5,2,3,6,4,4,93,93,93,93,93,93,93,93,93,93,93,93,93,93,93,93,93,93,93,93,93,93,93,93,93,93,93,93,93,93,93,93,93,93,93,93,93,93,93,93,93,93,93,6,5,6,5,6,6,3,1,4,1,3,2,
2,3,1,4,1,2,5,6,2,6,4,3,5,1,1,93,93,93,93,93,93,93,93,93,93,93,93,93,93,93,93,93,93,93,93,93,93,93,93,93,93,93,93,93,93,93,93,93,93,93,93,93,93,93,93,93,93,93,4,6,6,5,4,2,4,3,1,4,3,3,
4,3,4,4,3,2,6,1,1,5,5,6,3,4,3,93,93,93,93,93,93,93,93,93,93,93,93,93,93,93,93,93,93,93,93,93,93,93,93,93,93,93,93,93,93,93,93,93,93,93,93,93,93,93,93,93,93,93,1,6,6,5,1,3,2,3,1,4,2,4,
3,3,4,4,1,5,6,4,5,6,5,6,6,2,1,93,93,93,93,93,93,93,93,93,93,93,93,93,93,93,93,93,93,93,93,93,93,93,93,93,93,93,93,93,93,93,93,93,93,93,93,93,93,93,93,93,93,93,6,6,6,6,4,4,3,3,1,2,3,1,
3,1,2,2,3,2,5,5,5,6,1,3,2,1,1,93,93,93,93,93,93,93,93,93,93,93,93,93,93,93,93,93,93,93,93,93,93,93,93,93,93,93,93,93,93,93,93,93,93,93,93,93,93,93,93,93,93,93,6,6,6,6,1,2,1,1,3,2,1,1,
1,4,4,1,3,3,4,3,6,6,3,2,4,3,1,93,93,93,93,93,93,93,93,93,93,93,93,93,93,93,93,93,93,93,93,93,93,93,93,93,93,93,93,93,93,93,93,93,93,93,93,93,93,93,93,93,93,93,5,5,5,5,1,4,4,1,2,4,2,4,
3,2,3,3,1,3,2,6,5,6,3,2,3,1,4,93,93,93,93,93,93,93,93,93,93,93,93,93,93,93,93,93,93,93,93,93,93,93,93,93,93,93,93,93,93,93,93,93,93,93,93,93,93,93,93,93,93,93,2,6,6,5,4,1,1,2,4,2,1,4,
2,3,1,1,2,3,3,1,2,5,5,6,3,2,3,93,93,93,93,93,93,93,93,93,93,93,93,93,93,93,93,93,93,93,93,93,93,93,93,93,93,93,93,93,93,93,93,93,93,93,93,93,93,93,93,93,93,93,2,6,6,5,2,4,2,1,1,3,3,1,
3,4,3,2,2,2,1,6,2,6,2,6,1,1,4,93,93,93,93,93,93,93,93,93,93,93,93,93,93,93,93,93,93,93,93,93,93,93,93,93,93,93,93,93,93,93,93,93,93,93,93,93,93,93,93,93,93,93,3,5,2,5,1,2,4,2,3,3,1,4,
4,3,1,2,1,3,1,6,6,6,1,3,3,2,4,93,93,93,93,93,93,93,93,93,93,93,93,93,93,93,93,93,93,93,93,93,93,93,93,93,93,93,93,93,93,93,93,93,93,93,93,93,93,93,93,93,93,93,1,5,6,1,2,4,4,3,2,1,1,3,
2,1,3,1,3,2,2,6,5,6,4,1,1,3,2,93,93,93,93,93,93,93,93,93,93,93,93,93,93,93,93,93,93,93,93,93,93,93,93,93,93,93,93,93,93,93,93,93,93,93,93,93,93,93,93,93,93,93,1,6,3,4,4,4,3,1,3,3,1,1,
2,1,1,2,3,3,4,1,5,2,2,2,3,4,2,93,93,93,93,93,93,93,93,93,93,93,93,93,93,93,93,93,93,93,93,93,93,93,93,93,93,93,93,93,93,93,93,93,93,93,93,93,93,93,93,93,93,93,6,6,4,3,1,3,2,4,1,3,3,4,
4,2,2,1,4,4,6,5,6,6,2,3,3,3,3,93,93,93,93,93,93,93,93,93,93,93,93,93,93,93,93,93,93,93,93,93,93,93,93,93,93,93,93,93,93,93,93,93,93,93,93,93,93,93,93,93,93,93,6,2,1,2,1,4,1,4,2,2,1,1,
4,3,3,2,3,1,5,6,6,4,2,2,4,1,3,93,93,93,93,93,93,93,93,93,93,93,93,93,93,93,93,93,93,93,93,93,93,93,93,93,93,93,93,93,93,93,93,93,93,93,93,93,93,93,93,93,93,93,1,3,4,2,3,4,3,2,3,3,2,1,
3,1,4,2,2,4,4,3,5,3,4,1,3,4,4,93,93,93,93,93,93,93,93,93,93,93,93,93,93,93,93,93,93,93,93,93,93,93,93,93,93,93,93,93,93,93,93,93,93,93,93,93,93,93,93,93,93,93,3,6,3,1,4,1,2,3,4,2,2,3,
3,4,2,3,2,3,3,1,6,5,2,3,4,4,1,93,93,93,93,93,93,93,93,93,93,93,93,93,93,93,93,93,93,93,93,93,93,93,93,93,93,93,93,93,93,93,93,93,93,93,93,93,93,93,93,93,93,93,4,5,2,4,4,2,3,3,3,2,2,3,
1,3,3,4,3,3,2,4,2,5,6,6,3,4,3,93,93,93,93,93,93,93,93,93,93,93,93,93,93,93,93,93,93,93,93,93,93,93,93,93,93,93,93,93,93,93,93,93,93,93,93,93,93,93,93,93,93,93,6,5,3,3,1,1,4,2,4,3,1,1,
4,3,4,2,2,3,4,3,6,5,5,5,3,3,2,93,93,93,93,93,93,93,93,93,93,93,93,93,93,93,93,93,93,93,93,93,93,93,93,93,93,93,93,93,93,93,93,93,93,93,93,93,93,93,93,93,93,93,6,6,3,1,4,4,2,2,4,4,3,1,
4,3,2,2,2,2,3,6,5,5,6,2,93,93,93,93,93,93,93,93,93,93,93,93,93,93,93,93,93,93,93,93,93,93,93,93,93,93,93,93,93,93,93,93,93,93,93,93,93,93,93,93,93,93,93,93,93,2,5,5,2,3,3,2,2,3,3,1,4,3,
3,2,3,4,3,4,1,5,6,3,3,2,93,93,93,93,93,93,93,93,93,93,93,93,93,93,93,93,93,93,93,93,93,93,93,93,93,93,93,93,93,93,93,93,93,93,93,93,93,93,93,93,93,93,93,93,93,2,5,5,2,3,1,1,1,4,1,1,4,1,
1,3,1,2,3,3,5,6,5,6,4,3,93,93,93,93,93,93,93,93,93,93,93,93,93,93,93,93,93,93,93,93,93,93,93,93,93,93,93,93,93,93,93,93,93,93,93,93,93,93,93,93,93,93,93,93,93,2,6,6,4,3,2,3,4,3,1,2,3,3,
4,1,3,4,4,3,5,5,5,6,6,4,93,93,93,93,93,93,93,93,93,93,93,93,93,93,93,93,93,93,93,93,93,93,93,93,93,93,93,93,93,93,93,93,93,93,93,93,93,93,93,93,93,93,93,93,93,5,6,3,2,3,3,2,1,3,1,3,3,2,
4,1,2,3,2,2,2,6,6,5,5,6,93,93,93,93,93,93,93,93,93,93,93,93,93,93,93,93,93,93,93,93,93,93,93,93,93,93,93,93,93,93,93,93,93,93,93,93,93,93,93,93,93,93,93,93,93,1,2,1,3,3,1,2,3,4,1,2,3,1,
4,4,3,3,1,1,4,3,5,3,1,5,93,93,93,93,93,93,93,93,93,93,93,93,93,93,93,93,93,93,93,93,93,93,93,93,93,93,93,93,93,93,93,93,93,93,93,93,93,93,93,93,93,93,93,93,93,2,1,2,1,1,4,3,1,3,2,3,1,1,
1,2,1,3,3,3,1,1,5,1,5,6,93,93,93,93,93,93,93,93,93,93,93,93,93,93,93,93,93,93,93,93,93,93,93,93,93,93,93,93,93,93,93,93,93,93,93,93,93,93,93,93,93,93,93,93,93,3,4,3,4,3,4,3,1,1,4,1,3,3,
2,3,3,2,2,2,1,6,5,2,6,1,93,93,93,93,93,93,93,93,93,93,93,93,93,93,93,93,93,93,93,93,93,93,93,93,93,93,93,93,93,93,93,93,93,93,93,93,93,93,93,93,93,93,93,93,93,4,6,2,3,2,2,4,4,4,4,1,3,1,
1,1,3,1,2,5,5,6,6,5,6,3,93,93,93,93,93,93,93,93,93,93,93,93,93,93,93,93,93,93,93,93,93,93,93,93,93,93,93,93,93,93,93,93,93,93,93,93,93,93,93,93,93,93,93,93,93,2,5,3,4,2,1,4,1,3,2,2,2,1,
2,3,1,1,3,1,1,4,6,4,2,4,93,93,93,93,93,93,93,93,93,93,93,93,93,93,93,93,93,93,93,93,93,93,93,93,93,93,93,93,93,93,93,93,93,93,93,93,93,93,93,93,93,93,93,93,93,3,6,5,2,1,2,1,4,2,1,1,2,1,
3,1,4,2,4,5,5,5,6,3,6,3,93,93,93,93,93,93,93,93,93,93,93,93,93,93,93,93,93,93,93,93,93,93,93,93,93,93,93,93,93,93,93,93,93,93,93,93,93,93,93,93,93,93,93,93,93,1,3,5,3,4,4,1,4,2,1,3,2,4,
3,1,2,3,1,5,1,2,5,5,3,4,93,93,93,93,93,93,93,93,93,93,93,93,93,93,93,93,93,93,93,93,93,93,93,93,93,93,93,93,93,93,93,93,93,93,93,93,93,93,93,93,93,93,93,93,93,4,1,6,1,1,3,2,4,1,1,2,2,2,
1,1,1,4,1,1,2,4,6,5,3,1,93,93,93,93,93,93,93,93,93,93,93,93,93,93,93,93,93,93,93,93,93,93,93,93,93,93,93,93,93,93,93,93,93,93,93,93,93,93,93,93,93,93,93,93,93,6,6,6,6,2,4,2,1,2,2,1,1,4,
3,4,1,1,3,4,5,6,6,6,4,4,93,93,93,93,93,93,93,93,93,93,93,93,93,93,93,93,93,93,93,93,93,93,93,93,93,93,93,93,93,93,93,93,93,93,93,93,93,93,93,93,93,93,93,93,93,5,6,6,5,2,1,4,4,1,1,2,1,2,
4,4,4,3,2,4,1,5,2,3,3,2,93,93,93,93,93,93,93,93,93,93,93,93,93,93,93,93,93,93,93,93,93,93,93,93,93,93,93,93,93,93,93,93,93,93,93,93,93,93,93,93,93,93,93,93,93,5,5,5,5,4,3,2,1,3,3,2,3,3,
2,1,2,3,2,4,3,5,6,6,4,3,93,93,93,93,93,93,93,93,93,93,93,93,93,93,93,93,93,93,93,93,93,93,93,93,93,93,93,93,93,93,93,93,93,93,93,93,93,93,93,93,93,93,93,93,93,6,4,2,1,4,3,2,1,4,1,3,4,2,
1,3,2,3,1,3,2,6,5,4,4,2,93,93,93,93,93,93,93,93,93,93,93,93,93,93,93,93,93,93,93,93,93,93,93,93,93,93,93,93,93,93,93,93,93,93,93,93,93,93,93,93,93,93,93,93,93,6,1,4,1,2,3,2,1,1,3,4,4,1,
1,1,3,2,1,3,3,6,1,6,2,3,1,2,3,3,4,3,3,2,2,3,1,4,1,6,5,5,6,4,3,4,3,1,3,3,1,2,3,4,3,3,4,2,4,4,1,4,3,4,3,4,3,5,5,5,3,6,2,2,4,2,1,4,1,4,1,1,2,4,
3,3,1,3,4,4,3,5,2,5,5,5,6,5,6,5,6,6,6,2,1,3,4,4,2,1,6,6,5,6,3,2,1,3,3,1,2,1,2,4,3,4,4,3,2,4,4,3,1,2,3,4,6,3,5,5,3,6,3,1,2,4,3,4,1,3,3,1,3,1,
1,4,3,3,2,2,1,5,1,1,4,4,3,2,4,4,2,3,3,5,1,3,2,2,2,1,6,5,6,6,6,1,4,2,2,2,2,1,1,3,4,1,4,1,6,5,5,5,5,5,5,6,6,5,6,6,3,4,3,1,1,4,1,2,2,1,2,1,2,1,
2,1,2,1,3,2,1,2,1,4,4,4,1,3,4,3,5,3,1,2,5,3,3,3,5,5,6,5,5,6,4,4,4,4,3,4,1,3,2,3,4,5,6,6,6,6,6,5,5,6,6,6,3,6,5,5,4,1,2,2,1,2,1,3,1,1,3,3,1,4,
3,1,2,3,4,2,2,4,1,3,3,2,3,3,5,6,5,5,5,2,6,6,5,1,5,6,6,6,5,5,5,6,5,5,6,6,6,5,6,6,5,6,6,5,6,6,5,5,5,6,6,6,4,4,3,6,2,1,1,2,4,1,4,2,3,4,3,3,1,1,
3,2,2,4,1,2,1,4,2,2,4,1,4,2,6,5,6,5,5,5,6,1,6,5,6,6,6,6,6,5,6,6,5,6,6,6,5,5,5,5,6,6,6,5,6,5,5,6,5,6,5,3,1,1,6,5,6,1,4,4,3,1,2,4,3,1,1,4,2,4,
1,4,3,3,1,3,2,1,2,3,2,1,3,3,5,5,5,5,5,5,5,6,6,6,5,5,6,6,6,5,5,6,5,6,5,6,6,5,5,5,6,5,5,6,6,6,6,6,5,6,5,6,6,6,5,6,6,4,1,1,4,2,1,1,4,3,1,4,1,2,
4,3,1,1,4,3,2,4,3,1,3,4,3,3,4,6,5,3,3,4,5,5,5,5,5,6,6,5,5,5,5,5,6,6,6,6,5,5,6,6,6,6,5,5,6,5,6,6,5,6,6,5,6,6,4,1,4,2,4,2,4,3,2,2,1,4,4,1,1,3,
30,30,30,30,30,30,30,30,30,30,30,30,30,30,30,30,30,30,30,30,30,30,30,30,30,30,30,30,30,30,30,30,30,30,30,30,30,30,30,30,30,30,30,30,30,30,30,30,30,30,30,30,30,30,30,30,30,30,30,30,30,30,30,30,30,30,30,30,30,30,
86,86,86,86,86,86,86,86,86,86,86,86,86,86,86,86,86,86,86,86,86,86,86,86,86,86,86,86,86,86,86,86,86,86,86,86,86,86,86,86,86,86,86,86,86,86,86,86,86,86,86,86,86,86,86,86,86,86,86,86,86,86,86,86,86,86,86,86,86,86,
56,56,56,56,56,56,56,56,56,56,56,56,56,56,56,56,56,56,56,56,56,56,56,56,56,56,56,56,56,56,56,56,56,56,56,56,56,56,56,56,56,56,56,56,56,56,56,56,56,56,56,56,56,56,56,56,56,56,56,56,56,56,56,56,56,56,56,56,56,56,
86,86,86,86,86,86,86,86,86,86,86,86,86,86,86,86,86,86,86,86,86,86,86,86,86,86,86,86,86,86,86,86,86,86,86,86,86,86,86,86,86,86,86,86,86,86,86,86,86,86,86,86,86,86,86,86,86,86,86,86,86,86,86,86,86,86,86,86,86,86,
57,57,57,57,57,57,57,57,57,57,57,57,57,57,57,57,57,57,57,57,57,57,57,57,57,57,57,57,57,57,57,57,57,57,57,57,57,57,57,57,57,57,57,57,57,57,57,57,57,57,57,57,57,57,57,57,57,57,57,57,57,57,57,57,57,57,57,57,57,57
</data>
 </layer>
 <layer id="1" name="walls" width="70" height="60">
  <data encoding="csv">
181,182,0,0,0,0,181,182,0,0,0,0,0,0,0,0,0,0,0,0,0,181,182,0,0,0,0,0,181,182,0,0,0,0,0,0,0,0,0,0,0,0,0,0,0,0,0,0,181,182,0,0,0,0,0,181,182,0,0,0,0,0,0,0,0,181,182,0,0,0,
208,209,0,0,0,0,208,209,0,0,0,0,0,0,0,0,0,0,0,0,0,208,209,0,0,0,0,0,208,209,0,0,0,0,0,0,0,0,0,0,0,0,0,0,0,0,0,0,208,209,0,0,0,0,0,208,209,0,0,0,0,0,0,0,0,208,209,0,0,0,
0,0,181,182,0,0,0,0,0,0,0,0,0,0,0,0,0,0,0,0,0,0,0,0,0,0,0,0,0,0,0,0,0,0,0,0,0,0,0,0,0,0,0,0,0,0,0,0,0,0,0,0,0,0,0,0,0,0,0,0,0,0,0,181,182,0,0,181,182,0,
0,0,208,209,0,181,182,0,0,0,0,0,0,0,0,0,0,0,0,0,0,0,0,0,0,0,0,0,0,0,0,0,0,0,0,0,0,0,0,0,0,0,0,0,181,182,0,0,0,0,0,0,0,0,0,0,0,0,0,0,0,0,0,208,209,0,0,208,209,0,
181,182,0,0,0,208,209,0,0,0,0,0,0,0,0,181,182,0,0,0,181,182,0,0,0,0,181,182,0,0,0,0,0,0,181,182,0,0,181,182,0,0,0,0,208,209,0,0,0,0,0,181,182,0,0,0,0,0,0,0,0,0,0,0,0,0,0,0,0,0,
208,209,0,0,0,0,0,0,0,0,458,458,458,458,458,208,209,458,458,458,208,209,458,458,458,458,208,209,458,458,458,458,458,458,208,209,458,458,208,209,458,458,458,458,458,458,458,458,458,458,458,208,209,458,458,458,458,458,458,458,0,0,0,0,181,182,0,0,0,0,
0,0,0,0,0,0,0,0,0,0,458,181,182,0,0,3221225618,2684354707,2684354707,2684354707,2684354707,2684354707,2684354707,2684354707,2684354707,2684354707,2684354707,2684354707,2684354707,2684354707,2684354707,2684354707,2684354707,2684354707,2684354707,2684354707,2684354707,2684354707,2684354707,2684354707,2684354707,2684354707,2684354707,121,2684354707,2684354707,2684354707,2684354707,2684354707,2684354707,2684354707,2684354707,2684354707,2684354707,2684354707,2684354707,2684354707,2684354707,1610612882,0,458,0,0,0,0,208,209,0,0,0,0,
0,0,0,181,182,0,0,0,0,0,458,208,209,0,0,147,0,0,0,0,0,0,0,0,0,0,0,0,0,0,0,0,0,0,0,0,0,0,0,0,0,0,147,0,0,0,0,0,0,0,0,0,0,0,0,0,0,147,0,458,0,0,0,0,0,0,0,181,182,0,
181,182,0,208,209,0,0,0,0,0,458,0,181,182,0,147,0,0,0,0,0,0,0,0,0,0,0,0,0,0,0,0,0,0,0,0,0,0,0,0,0,0,1610612887,0,0,0,0,0,0,0,0,0,0,0,0,0,0,147,0,458,0,0,0,0,0,0,0,208,209,0,
208,209,0,0,0,0,0,0,0,0,458,0,208,209,0,147,0,0,0,0,0,0,0,0,0,0,0,0,0,0,0,0,0,0,0,0,0,0,0,0,0,0,0,0,0,0,0,0,0,0,0,0,0,0,0,0,0,147,0,458,0,0,0,181,182,0,0,0,0,0,
0,0,0,0,0,0,0,0,0,0,458,0,0,0,0,147,0,0,0,0,0,0,0,0,0,0,0,0,0,0,0,0,0,0,0,0,0,0,0,0,0,0,0,0,0,0,0,0,0,0,0,0,0,0,0,0,0,147,0,458,0,0,0,208,209,0,0,0,0,0,
0,0,0,0,0,0,0,0,0,0,458,0,0,181,182,147,0,0,0,0,0,0,0,0,0,0,0,0,0,0,0,0,0,0,0,0,0,0,0,0,0,0,0,0,0,0,0,0,0,0,0,0,0,0,0,0,0,147,0,458,0,0,0,0,0,0,0,181,182,0,
0,0,0,181,182,0,0,0,0,0,458,182,0,208,209,147,0,0,0,0,0,0,0,0,0,0,0,0,0,0,0,0,0,0,0,0,0,0,0,0,0,0,3758096530,2684354707,2684354707,2684354707,2147483799,0,0,0,0,1073741975,2684354707,2684354707,2684354707,2684354707,120,149,0,458,0,0,0,0,0,181,182,208,209,0,
181,182,0,208,209,0,0,0,0,0,458,209,0,0,0,147,0,0,0,0,0,0,0,0,0,0,0,0,0,0,0,0,0,0,0,0,0,0,0,0,0,0,3221225619,0,0,0,0,0,0,0,0,0,0,0,0,0,0,147,0,458,0,0,0,0,0,208,209,0,0,0,
208,209,181,182,0,0,0,0,0,0,458,0,0,181,182,148,3221225623,0,0,0,151,1610612883,1610612883,1610612883,1610612883,1610612883,121,1610612883,1610612883,1610612883,1610612883,1610612883,1610612883,1610612883,1610612883,1610612883,1610612883,1610612883,1610612883,1610612883,1610612883,1610612883,149,0,0,0,0,0,0,0,0,0,0,0,0,0,0,147,0,458,0,0,0,0,0,0,0,0,0,0,
0,0,208,209,0,0,0,0,0,0,458,0,0,208,209,147,0,0,0,0,0,0,0,0,0,0,147,0,0,0,0,0,0,0,0,0,0,0,0,0,0,0,3221225619,0,0,0,0,0,0,0,0,0,0,0,0,0,0,147,0,458,0,0,0,181,182,0,0,0,181,182,
0,0,0,0,0,0,0,0,0,0,181,182,0,0,0,147,0,0,0,0,0,0,0,0,0,0,147,0,156,0,0,0,0,0,0,0,0,0,0,0,0,156,3221225619,0,0,0,0,0,0,0,0,0,0,0,0,0,0,147,0,458,0,0,0,208,209,0,0,0,208,209,
0,181,182,0,181,182,0,0,0,0,208,209,0,0,0,147,93,93,93,93,93,93,93,93,93,93,147,93,93,93,93,93,93,93,93,93,93,93,93,93,93,93,3221225619,93,93,93,93,93,93,93,93,0,0,0,0,0,0,147,0,458,0,0,0,0,0,0,0,0,0,0,
0,208,209,0,208,209,0,0,0,0,458,0,0,181,182,147,93,93,93,93,93,93,93,93,93,93,147,93,93,93,93,0,0,3221225618,2684354707,2684354707,2684354707,2684354707,1610612882,93,157,93,3221225619,93,93,93,93,93,93,93,93,0,0,0,0,0,0,147,0,458,0,0,181,182,0,0,0,0,0,0,
0,0,0,0,0,181,182,0,0,0,458,0,0,208,209,147,93,93,93,93,93,93,93,93,93,93,147,93,0,93,93,93,93,3758096535,33,30,30,2684354593,3221225619,93,157,93,3221225619,93,93,93,93,93,93,93,93,0,0,0,0,0,0,147,0,458,0,0,208,209,0,0,181,182,0,0,
181,182,0,181,182,208,209,0,0,0,458,0,0,0,0,147,93,93,93,93,93,93,93,93,93,93,147,93,0,93,93,93,93,93,1610612766,31,2684354591,2684354590,3221225619,93,157,93,3221225619,93,93,93,93,93,93,93,93,0,0,0,0,0,0,147,0,458,0,0,0,0,0,0,208,209,0,0,
208,209,0,208,209,0,0,0,0,0,181,182,0,181,182,147,93,93,93,93,93,93,93,93,93,93,147,93,93,93,93,93,93,93,1610612766,1610612767,3221225503,2684354590,3221225619,93,93,93,3221225619,93,93,93,93,93,93,93,93,0,0,0,0,0,0,147,0,458,0,0,0,0,0,0,0,0,0,0,
0,0,0,0,0,181,182,0,0,0,208,209,0,208,209,147,93,93,93,93,93,93,93,93,93,93,147,93,93,93,93,93,93,536871063,1610612769,3221225502,3221225502,3221225505,3221225619,93,93,93,3221225619,93,93,93,93,93,93,93,93,0,0,0,0,0,0,147,0,458,0,0,181,182,0,181,182,0,0,0,
0,181,182,0,0,208,209,0,0,0,458,0,0,0,0,147,93,93,93,93,93,93,93,93,93,93,147,93,93,93,93,93,93,2684354706,2684354707,2684354707,2684354707,2684354707,146,93,93,93,3221225619,93,93,93,93,93,93,93,93,0,0,0,0,0,0,147,0,458,0,0,208,209,0,208,209,0,181,182,
0,208,209,0,0,0,0,0,0,0,458,181,182,0,0,147,93,93,93,93,93,93,93,93,93,93,3758096535,93,93,93,93,93,93,93,93,93,93,93,93,93,93,93,3221225619,93,93,93,93,93,93,93,93,0,0,0,0,0,0,147,0,181,182,0,0,0,0,0,0,0,208,209,
181,182,0,181,182,0,0,0,0,0,458,208,209,0,0,147,93,93,93,93,93,93,93,93,93,93,0,93,93,93,93,93,93,93,93,93,93,93,93,156,93,93,3221225619,93,93,93,93,93,93,93,93,0,0,0,0,0,0,147,0,208,209,0,181,182,0,0,0,0,0,0,
208,209,0,208,209,0,0,0,0,0,181,182,0,0,0,147,93,93,93,93,93,93,93,93,93,93,0,93,93,93,93,93,93,93,93,93,93,93,93,156,93,93,3221225619,93,93,93,93,93,93,93,93,0,0,0,0,0,0,147,0,458,0,0,208,209,0,181,182,0,0,0,
0,0,0,0,0,181,182,0,0,0,208,209,0,0,0,147,93,93,93,93,93,93,93,93,93,93,0,93,93,93,93,93,93,93,93,93,93,93,156,93,157,93,3221225619,93,93,93,93,93,93,93,93,0,0,0,0,0,0,147,0,458,181,182,0,0,0,208,209,0,0,0,
0,181,182,0,0,208,209,0,0,0,458,0,181,182,0,147,0,0,0,0,0,0,0,0,0,0,0,0,0,0,0,0,0,0,0,0,156,156,0,0,0,0,3221225619,0,0,0,0,0,0,0,0,0,0,0,0,0,0,147,0,458,208,209,0,181,182,0,0,0,0,0,
0,208,209,0,0,0,0,0,0,0,458,0,208,209,0,147,0,0,0,0,0,0,0,0,0,0,536871063,0,0,0,0,0,0,0,0,156,156,0,0,0,0,0,3221225619,0,0,0,0,0,0,0,0,0,0,0,0,0,3221225618,146,0,458,0,0,0,208,209,0,0,0,0,0,
0,0,0,0,0,0,0,0,0,0,458,0,3221225618,2684354707,2684354707,122,120,2684354707,2684354707,2684354707,2684354707,2684354707,2684354707,2684354707,2684354707,2684354707,2684354707,2684354707,2684354707,2684354707,2684354707,121,2684354707,2684354707,2684354707,2684354707,2684354707,2684354707,2684354707,2684354707,2684354707,120,122,120,2684354707,2684354707,2147483799,0,0,0,0,1073741975,2684354707,2684354707,2684354707,120,149,0,0,458,0,0,0,0,0,0,0,181,182,0,
0,0,0,0,0,0,0,0,0,0,458,0,147,0,0,0,0,0,0,0,0,0,0,0,0,0,0,0,0,0,0,147,0,0,0,0,0,0,0,0,0,0,0,0,0,0,0,0,0,0,0,0,0,0,0,0,3221225619,0,0,458,0,181,182,0,0,0,0,208,209,0,
0,181,182,181,182,0,0,0,0,0,458,0,147,0,0,0,0,0,0,0,0,0,0,0,0,0,0,0,0,0,0,3221225619,0,0,0,0,0,0,0,0,0,0,0,0,0,0,0,0,0,0,0,0,0,0,0,0,3221225619,0,0,458,0,208,209,0,181,182,0,0,0,0,
0,208,209,208,209,0,0,0,0,0,458,0,147,0,0,0,0,0,0,0,0,0,0,0,0,0,0,0,0,0,0,3221225619,0,0,0,0,0,0,0,0,0,0,0,0,0,0,0,0,0,0,0,0,0,0,0,0,3221225619,0,0,458,0,0,0,0,208,209,0,0,0,0,
0,0,0,0,0,0,0,0,0,0,458,0,147,0,0,0,0,0,0,0,0,0,0,0,0,0,0,0,0,0,0,3221225619,0,0,0,0,0,0,0,0,0,0,0,0,0,0,0,0,0,0,0,0,0,0,0,0,3221225619,181,182,458,0,181,182,0,0,0,0,181,182,0,
0,0,181,182,0,181,182,0,0,0,458,0,147,0,0,0,0,0,0,0,0,0,0,0,0,0,0,0,0,0,0,3758096535,0,0,0,0,0,0,0,0,0,0,0,0,0,0,0,0,0,0,0,0,0,0,0,0,3221225619,208,209,458,0,208,209,0,0,0,0,208,209,0,
0,0,208,209,0,208,209,0,0,0,458,0,147,0,0,0,0,0,0,0,0,0,0,0,0,0,0,0,0,0,0,0,0,0,0,0,0,0,0,0,0,0,0,3221226001,3221226001,3221226001,0,0,0,0,0,0,0,0,0,0,3221225619,0,0,458,181,182,0,181,182,0,0,0,0,0,
0,0,0,0,0,0,0,0,0,0,458,0,147,0,0,0,0,0,0,0,0,0,0,0,0,0,0,0,0,0,0,0,0,0,0,0,0,0,0,0,0,0,2684355089,349,350,351,1610613265,0,0,0,0,0,0,0,0,0,3221225619,0,0,458,208,209,0,208,209,0,0,0,0,0,
181,182,0,0,0,0,0,0,0,0,458,0,147,0,0,0,0,0,0,0,0,0,0,0,0,0,0,0,0,0,0,0,0,0,0,0,0,0,0,0,0,0,2684355089,376,377,378,1610613265,0,0,0,0,0,0,0,0,0,3221225619,0,0,458,0,0,0,0,0,0,0,0,0,0,
208,209,0,181,182,0,0,0,0,0,458,0,147,0,0,0,0,0,0,0,0,0,0,0,0,0,0,0,0,0,0,0,0,0,0,0,0,0,0,0,0,0,2684355089,403,404,405,1610613265,0,0,0,0,0,0,0,0,0,3221225619,0,0,458,0,0,0,0,0,0,0,0,181,182,
0,0,0,208,209,0,0,0,0,0,458,0,147,0,0,0,0,0,0,0,0,0,0,0,0,0,0,0,0,0,0,536871063,0,0,0,0,0,0,0,0,0,0,0,529,529,529,0,0,0,0,0,0,0,0,0,0,3221225619,0,0,458,0,181,182,0,181,182,0,0,208,209,
181,182,0,0,0,0,0,0,0,0,458,0,147,0,0,0,0,0,0,0,0,0,0,0,0,0,0,0,0,0,0,3221225619,0,0,0,0,0,0,0,0,0,0,0,0,0,0,0,0,0,0,0,0,0,0,0,0,3221225619,0,0,458,0,208,209,0,208,209,0,0,0,0,
208,209,0,0,0,0,0,0,0,0,458,0,147,0,0,0,0,0,0,0,0,0,0,0,0,0,0,0,0,0,0,3221225619,0,0,0,0,0,0,0,0,0,0,0,0,0,0,0,0,0,0,0,0,0,0,0,0,3221225619,0,0,458,0,0,0,0,0,0,0,181,182,0,
0,0,0,0,0,0,0,0,0,0,458,0,147,0,0,0,0,0,0,0,0,0,0,0,0,0,0,0,0,0,0,3221225619,0,0,0,0,0,0,0,0,0,0,0,0,0,0,0,0,0,0,0,0,0,0,0,0,3221225619,0,0,458,0,0,0,0,0,0,0,208,209,0,
0,0,0,181,182,0,0,0,0,0,181,182,147,0,0,0,0,0,0,0,0,0,0,0,0,0,0,0,0,0,0,3221225619,156,0,0,0,0,0,0,0,0,0,0,0,0,0,0,0,0,0,0,0,0,0,0,0,3221225619,0,0,458,0,0,181,182,0,0,0,0,0,0,
0,0,0,208,209,0,0,0,0,0,208,209,147,0,0,0,0,0,0,0,0,0,0,0,0,0,0,0,0,0,0,147,129,2684354882,321,321,321,321,321,321,321,321,321,321,297,297,296,296,321,321,321,321,321,323,323,322,3221225619,0,0,458,0,0,208,209,0,181,182,0,0,0,
181,182,0,0,0,181,182,0,0,0,458,0,2684354706,2684354707,2684354707,2684354707,2684354707,2684354707,2684354707,2684354707,2684354707,2684354707,2684354707,2684354707,2684354707,2684354707,2684354707,2684354707,2684354707,2684354707,2684354707,122,2684354707,2684354707,2684354707,2684354707,2684354707,2684354707,2684354707,2684354707,2684354707,2684354707,2684354707,2684354707,2684354707,2684354707,2684354707,2684354707,2684354707,2684354707,2684354707,2684354707,2684354707,2684354707,2684354707,2684354707,146,0,0,181,182,0,0,0,0,208,209,0,0,0,
208,209,0,0,0,208,209,0,0,0,458,0,0,0,0,0,0,0,0,0,181,182,0,0,0,0,0,0,0,0,0,0,181,182,0,0,0,181,182,0,0,0,0,0,0,0,0,181,182,0,0,0,0,0,0,0,0,0,0,208,209,0,181,182,0,0,0,0,0,0,
0,0,0,181,182,0,0,0,0,0,458,0,0,0,0,0,0,0,0,0,208,209,0,181,182,0,0,0,0,0,0,0,208,209,0,0,0,208,209,0,0,181,182,0,0,0,0,208,209,0,0,0,0,0,0,0,0,0,0,458,0,0,208,209,0,0,0,181,182,0,
0,0,0,208,209,0,0,0,0,0,458,181,182,0,0,0,0,0,0,0,0,0,0,208,209,0,0,0,0,0,0,0,0,0,0,181,182,0,0,0,0,208,209,0,0,0,0,0,0,0,0,0,0,0,0,0,181,182,0,181,182,0,0,0,181,182,0,208,209,0,
0,181,182,0,0,0,0,0,0,0,458,181,182,0,0,0,0,0,0,0,0,0,0,0,0,0,0,0,0,0,0,0,0,0,0,208,209,0,0,0,0,0,0,0,0,0,0,0,0,0,0,0,0,0,0,0,208,209,0,208,209,0,0,0,208,209,0,0,0,0,
0,208,209,0,0,181,182,0,0,0,458,208,209,0,0,0,0,0,0,0,0,0,0,0,0,0,0,0,0,0,0,0,0,0,0,0,0,0,0,0,0,0,0,0,0,0,0,0,0,0,0,0,0,0,0,0,208,209,0,458,0,0,0,0,0,0,181,182,0,0,
0,0,0,0,0,208,209,0,181,182,458,0,0,0,0,0,0,0,0,0,0,0,0,0,0,0,0,0,0,0,0,0,0,0,0,0,0,0,0,0,0,0,0,0,0,0,0,0,0,0,0,0,0,0,0,0,0,181,182,458,0,0,181,182,0,0,208,209,0,0,
181,182,0,181,182,0,0,0,208,209,458,0,181,182,0,0,0,0,0,0,0,0,0,0,0,0,0,0,0,0,0,0,0,0,0,0,0,0,0,0,0,0,0,0,0,0,0,0,0,0,0,0,0,0,0,0,0,208,209,458,0,0,208,209,0,0,0,0,181,182,
208,209,0,208,209,0,0,0,0,0,458,458,208,209,458,458,458,458,458,458,458,458,458,458,458,458,458,458,458,458,458,458,458,458,458,458,458,458,458,458,458,458,458,458,458,458,458,458,458,458,458,458,458,458,458,458,458,458,458,458,0,0,0,0,0,0,0,0,208,209,
0,0,0,0,0,0,0,0,0,0,0,0,0,0,0,0,0,0,0,0,0,0,0,0,0,0,0,0,0,0,0,0,0,0,0,0,0,0,0,0,0,0,0,0,0,0,0,0,0,0,0,0,0,0,0,0,0,0,0,0,0,0,0,0,0,0,0,0,0,0,
0,0,0,0,0,0,0,0,0,0,0,0,0,0,0,0,0,0,0,0,0,0,0,0,0,0,0,0,0,0,0,0,0,0,0,0,0,0,0,0,0,0,0,0,0,0,0,0,0,0,0,0,0,0,0,0,0,0,0,0,0,0,0,0,0,0,0,0,0,0,
0,0,0,0,0,0,0,0,0,0,0,0,0,0,0,0,0,0,0,0,0,0,0,0,0,0,0,0,0,0,0,0,0,0,0,0,0,0,0,0,0,0,0,0,0,0,0,0,0,0,0,0,0,0,0,0,0,0,0,0,0,0,0,0,0,0,0,0,0,0,
0,0,0,0,0,0,0,0,0,0,0,0,0,0,0,0,0,0,0,0,0,0,0,0,0,0,0,0,0,0,0,0,0,0,0,0,0,0,0,0,0,0,0,0,0,0,0,0,0,0,0,0,0,0,0,0,0,0,0,0,0,0,0,0,0,0,0,0,0,0,
0,0,0,0,0,0,0,0,0,0,0,0,0,0,0,0,0,0,0,0,0,0,0,0,0,0,0,0,0,0,0,0,0,0,0,0,0,0,0,0,0,0,0,0,0,0,0,0,0,0,0,0,0,0,0,0,0,0,0,0,0,0,0,0,0,0,0,0,0,0
</data>
 </layer>
 <layer id="3" name="decorations" width="70" height="60">
  <data encoding="csv">
0,0,0,0,0,0,0,0,0,0,0,0,0,0,0,0,0,0,0,0,0,0,0,0,0,0,0,0,0,0,0,0,0,0,0,0,0,0,0,0,0,0,0,0,0,0,0,0,0,0,0,0,0,0,0,0,0,0,0,0,0,0,0,0,0,0,0,0,0,0,
0,0,0,0,0,0,0,0,0,0,0,0,0,0,0,0,0,0,0,0,0,0,0,0,0,0,0,0,0,0,0,0,0,0,0,0,0,0,0,0,0,0,0,0,0,0,0,0,0,0,0,0,0,0,0,0,0,0,0,0,0,0,0,0,0,0,0,0,0,0,
0,0,0,0,0,0,0,0,0,0,0,0,0,0,0,0,0,0,0,0,0,0,0,0,0,0,0,0,0,0,0,0,0,0,0,0,0,0,0,0,0,0,0,0,0,0,0,0,0,0,0,0,0,0,0,0,0,0,0,0,0,0,0,0,0,0,0,0,0,0,
0,0,0,0,0,0,0,0,0,0,0,0,0,0,0,0,0,0,0,0,0,0,0,0,0,0,0,0,0,0,0,0,0,0,0,0,0,0,0,0,0,0,0,0,0,0,0,0,0,0,0,0,0,0,0,0,0,0,0,0,0,0,0,0,0,0,0,0,0,0,
0,0,0,0,0,0,0,0,0,0,0,0,0,0,0,0,0,0,0,0,0,0,0,0,0,0,0,0,0,0,0,0,0,0,0,0,0,0,0,0,0,0,0,0,0,0,0,0,0,0,0,0,0,0,0,0,0,0,0,0,0,0,0,0,0,0,0,0,0,0,
0,0,0,0,0,0,0,0,0,0,0,0,0,0,0,0,0,0,0,0,0,0,0,0,0,0,0,0,0,0,0,0,0,0,0,0,0,0,0,0,0,0,0,0,0,0,0,0,0,0,0,0,0,0,0,0,0,0,0,0,0,0,0,0,0,0,0,0,0,0,
0,0,0,0,0,0,0,0,0,0,0,0,0,0,0,0,0,0,0,0,0,0,0,0,0,0,0,0,0,0,0,0,0,0,0,0,0,0,0,0,0,0,0,0,0,0,0,0,0,0,0,0,0,0,0,0,0,0,0,0,0,0,0,0,0,0,0,0,0,0,
0,0,0,0,0,0,0,0,0,0,0,0,0,0,0,0,0,0,0,0,0,0,0,0,0,0,0,0,0,0,0,0,0,0,0,0,0,0,0,0,0,0,0,0,0,0,0,0,0,0,0,0,0,0,0,0,0,0,0,0,0,0,0,0,0,0,0,0,0,0,
0,0,0,0,0,0,0,0,0,0,0,0,0,0,0,0,0,0,0,0,0,0,0,0,0,0,0,0,0,0,0,0,0,0,0,0,0,0,0,0,0,0,0,0,0,0,0,0,0,0,0,0,0,0,0,0,0,0,0,0,0,0,0,0,0,0,0,0,0,0,
0,0,0,0,0,0,0,0,0,0,0,0,0,0,0,0,0,0,0,0,0,0,0,0,0,0,0,0,0,0,0,0,0,0,0,0,0,0,0,0,0,0,0,0,0,0,0,0,0,0,0,0,0,0,0,0,0,0,0,0,0,0,0,0,0,0,0,0,0,0,
0,0,0,0,0,0,0,0,0,0,0,0,0,0,0,0,0,0,0,0,0,0,0,0,0,0,0,0,0,0,0,0,0,0,0,0,0,0,0,0,0,0,0,0,0,0,0,0,0,0,0,0,0,0,0,0,0,0,0,0,0,0,0,0,0,0,0,0,0,0,
0,0,0,0,0,0,0,0,0,0,0,0,0,0,0,0,0,0,0,0,0,0,0,0,0,0,0,0,0,0,0,0,0,0,0,0,0,0,0,0,0,0,0,0,0,0,0,0,0,0,0,0,0,0,0,0,0,0,0,0,0,0,0,0,0,0,0,0,0,0,
0,0,0,0,0,0,0,0,0,0,0,0,0,0,0,0,0,0,0,0,0,0,0,0,0,0,0,0,0,0,0,0,0,0,0,0,0,0,0,0,0,0,0,0,0,0,0,0,0,0,0,0,0,0,0,0,0,0,0,0,0,0,0,0,0,0,0,0,0,0,
0,0,0,0,0,0,0,0,0,0,0,0,0,0,0,0,0,0,0,0,0,0,0,0,0,0,0,0,0,0,0,0,0,0,0,0,0,0,0,0,0,0,0,0,0,0,0,0,0,0,0,0,0,0,0,0,0,0,0,0,0,0,0,0,0,0,0,0,0,0,
0,0,0,0,0,0,0,0,0,0,0,0,0,0,0,0,0,0,0,0,0,0,0,0,0,0,0,0,0,0,0,0,0,0,0,0,0,0,0,0,0,0,0,0,0,0,0,0,0,0,0,0,0,0,0,0,0,0,0,0,0,0,0,0,0,0,0,0,0,0,
0,0,0,0,0,0,0,0,0,0,0,0,0,0,0,0,0,0,0,0,0,0,0,0,0,0,0,0,0,0,0,0,0,159,160,159,160,159,160,0,0,0,0,0,0,0,0,0,0,0,0,0,0,0,0,0,0,0,0,0,0,0,0,0,0,0,0,0,0,0,
0,0,0,0,0,0,0,0,0,0,0,0,0,0,0,0,0,0,0,0,0,0,0,0,0,0,0,0,0,188,0,0,0,0,0,0,320,0,0,0,0,0,0,265,0,0,0,0,0,0,0,0,0,0,0,0,0,0,0,0,0,0,0,0,0,0,0,0,0,0,
0,0,0,0,0,0,0,0,0,0,0,0,0,0,0,0,0,0,0,0,0,0,0,0,0,0,0,0,0,0,0,0,0,0,0,0,0,0,0,0,0,0,0,0,0,0,0,0,0,0,0,0,0,0,0,0,0,0,0,0,0,0,0,0,0,0,0,0,0,0,
0,0,0,0,0,0,0,0,0,0,0,0,0,0,0,0,0,0,265,0,0,0,0,265,0,0,0,0,0,320,0,0,0,0,0,0,0,0,0,0,0,0,0,0,0,0,0,0,0,0,0,0,0,0,0,0,0,0,0,0,0,0,0,0,0,0,0,0,0,0,
0,0,0,0,0,0,0,0,0,0,0,0,0,0,0,0,0,0,0,0,0,0,0,0,0,0,0,0,0,0,0,0,0,0,0,0,0,0,0,0,0,0,0,0,0,0,0,0,0,0,0,0,0,0,0,0,0,0,0,0,0,0,0,0,0,0,0,0,0,0,
0,0,0,0,0,0,0,0,0,0,0,0,0,0,0,0,0,0,0,0,0,0,0,0,0,0,0,0,0,0,0,0,0,0,0,0,0,0,0,0,0,0,0,0,0,0,0,0,0,0,0,0,265,0,0,0,0,0,0,0,0,0,0,0,0,0,0,0,0,0,
0,0,0,0,0,0,0,0,0,0,0,0,0,0,0,0,0,0,0,0,0,0,0,0,0,0,0,0,188,0,0,0,0,0,0,0,0,0,0,0,0,0,0,0,0,0,0,0,0,0,0,0,0,0,0,0,0,0,0,0,0,0,0,0,0,0,0,0,0,0,
0,0,0,0,0,0,0,0,0,0,0,0,0,0,0,0,0,0,0,0,0,0,0,0,0,0,0,0,0,0,0,320,0,0,0,0,0,0,0,0,0,0,0,0,0,265,0,0,0,0,0,0,0,0,0,0,0,0,0,0,0,0,0,0,0,0,0,0,0,0,
0,0,0,0,0,0,0,0,0,0,0,0,0,0,0,0,0,0,0,0,0,0,0,0,0,0,0,0,188,0,0,0,0,0,0,0,0,0,0,320,0,0,0,0,0,0,0,0,0,0,0,0,0,0,0,0,0,0,0,0,0,0,0,0,0,0,0,0,0,0,
0,0,0,0,0,0,0,0,0,0,0,0,0,0,0,0,0,0,0,0,0,0,0,0,0,0,0,0,0,0,188,0,0,0,0,0,0,0,0,0,0,0,0,0,0,0,0,0,0,0,0,0,0,0,0,0,0,0,0,0,0,0,0,0,0,0,0,0,0,0,
0,0,0,0,0,0,0,0,0,0,0,0,0,0,0,0,0,0,0,0,0,0,0,0,0,0,0,0,0,0,0,0,0,0,0,0,0,0,0,0,0,0,0,0,0,0,0,0,0,0,0,0,0,0,0,0,0,0,0,0,0,0,0,0,0,0,0,0,0,0,
0,0,0,0,0,0,0,0,0,0,0,0,0,0,0,0,0,265,0,0,0,0,0,0,0,0,0,0,0,0,0,0,0,0,0,0,0,0,0,0,0,0,0,0,0,0,0,0,0,0,0,0,265,0,0,0,0,0,0,0,0,0,0,0,0,0,0,0,0,0,
0,0,0,0,0,0,0,0,0,0,0,0,0,0,0,0,0,0,0,0,0,0,0,0,0,0,0,320,0,0,0,0,320,320,0,0,0,0,0,0,0,0,0,0,0,265,0,0,0,0,0,0,0,0,0,0,0,0,0,0,0,0,0,0,0,0,0,0,0,0,
0,0,0,0,0,0,0,0,0,0,0,0,0,0,0,0,0,0,0,0,0,0,0,0,0,0,0,0,0,0,0,0,0,0,0,0,0,0,0,188,0,0,0,0,0,0,0,0,0,0,0,0,0,0,0,0,0,0,0,0,0,0,0,0,0,0,0,0,0,0,
0,0,0,0,0,0,0,0,0,0,0,0,0,0,0,0,0,0,0,0,0,0,0,265,0,0,0,0,0,0,0,0,0,0,0,0,0,0,0,0,0,0,0,0,0,0,0,0,0,0,0,0,0,0,0,0,0,0,0,0,0,0,0,0,0,0,0,0,0,0,
0,0,0,0,0,0,0,0,0,0,0,0,0,0,0,0,0,0,0,0,0,0,0,0,0,0,0,0,0,0,0,0,0,0,0,0,0,0,0,0,0,0,0,0,0,0,0,0,0,0,0,0,0,0,0,0,0,0,0,0,0,0,0,0,0,0,0,0,0,0,
0,0,0,0,0,0,0,0,0,0,0,0,0,0,0,0,0,0,0,0,0,0,0,0,0,0,0,0,0,0,0,0,0,0,0,0,0,0,0,0,0,0,0,0,0,0,0,0,0,0,0,0,0,0,0,0,0,0,0,0,0,0,0,0,0,0,0,0,0,0,
0,0,0,0,0,0,0,0,0,0,0,0,0,0,0,0,0,0,0,0,0,0,0,0,0,0,0,0,0,0,0,0,0,0,0,0,0,0,0,0,0,0,0,0,0,0,0,0,0,0,0,0,0,0,0,0,0,0,0,0,0,0,0,0,0,0,0,0,0,0,
0,0,0,0,0,0,0,0,0,0,0,0,0,0,0,0,0,0,0,0,0,0,0,0,0,0,0,0,0,0,0,0,0,0,0,0,0,0,0,0,0,0,0,0,0,0,0,0,0,0,0,0,0,0,0,0,0,0,0,0,0,0,0,0,0,0,0,0,0,0,
0,0,0,0,0,0,0,0,0,0,0,0,0,0,0,0,0,0,0,0,0,0,0,0,0,0,0,0,0,0,0,0,0,0,0,0,0,262,0,0,0,0,0,0,0,0,0,0,0,264,0,0,0,0,0,0,0,0,0,0,0,0,0,0,0,0,0,0,0,0,
0,0,0,0,0,0,0,0,0,0,0,0,0,0,0,0,0,0,0,0,0,0,0,0,0,0,0,0,0,0,0,0,0,0,0,0,0,0,0,0,0,0,0,0,0,0,0,0,0,0,0,0,0,0,0,0,0,0,0,0,0,0,0,0,0,0,0,0,0,0,
0,0,0,0,0,0,0,0,0,0,0,0,0,0,0,0,0,0,0,0,0,0,0,0,0,0,0,0,0,0,0,0,0,0,0,0,0,0,0,0,0,0,0,0,0,0,0,0,0,0,0,0,0,0,0,0,0,0,0,0,0,0,0,0,0,0,0,0,0,0,
0,0,0,0,0,0,0,0,0,0,0,0,0,0,0,0,0,0,0,0,0,0,0,0,0,0,0,0,0,0,0,0,0,0,0,0,0,0,0,0,0,0,0,0,0,215,0,0,0,0,0,0,0,0,0,0,0,0,0,0,0,0,0,0,0,0,0,0,0,0,
0,0,0,0,0,0,0,0,0,0,0,0,0,0,0,0,0,0,0,0,0,0,0,0,0,0,0,0,0,0,0,0,0,0,0,0,0,0,0,0,0,0,0,319,0,0,0,0,0,0,0,0,0,0,0,0,0,0,0,0,0,0,0,0,0,0,0,0,0,0,
0,0,0,0,0,0,0,0,0,0,0,0,0,0,0,0,0,0,0,0,0,0,0,0,0,0,0,0,0,0,0,0,0,0,0,0,320,0,0,0,0,0,0,215,0,319,0,0,0,0,0,0,0,264,0,0,0,0,0,0,0,0,0,0,0,0,0,0,0,0,
0,0,0,0,0,0,0,0,0,0,0,0,0,0,0,0,0,0,0,0,0,0,0,0,0,0,0,0,0,0,0,0,0,0,0,0,0,0,0,0,0,0,0,0,0,0,0,0,0,0,0,0,0,0,0,0,0,0,0,0,0,0,0,0,0,0,0,0,0,0,
0,0,0,0,0,0,0,0,0,0,0,0,0,0,0,0,0,0,0,0,0,0,0,0,0,0,0,0,0,0,0,0,0,0,0,0,0,0,0,0,0,0,0,0,0,0,0,0,0,0,0,0,0,0,0,0,0,0,0,0,0,0,0,0,0,0,0,0,0,0,
0,0,0,0,0,0,0,0,0,0,0,0,0,0,0,0,0,0,0,0,0,0,0,0,0,0,0,0,0,0,0,0,0,0,0,0,0,0,0,0,0,0,0,0,0,0,0,0,0,0,0,0,0,0,0,0,0,0,0,0,0,0,0,0,0,0,0,0,0,0,
0,0,0,0,0,0,0,0,0,0,0,0,0,0,0,0,0,0,0,0,0,0,0,0,0,0,0,0,0,0,0,0,0,0,0,0,0,0,0,0,0,0,0,0,0,0,0,0,0,0,0,0,0,0,0,0,0,0,0,0,0,0,0,0,0,0,0,0,0,0,
0,0,0,0,0,0,0,0,0,0,0,0,0,0,0,0,0,0,0,0,0,0,0,0,0,0,0,0,0,0,0,0,0,0,0,0,0,0,0,0,0,0,0,0,0,0,0,0,0,0,0,0,0,0,0,0,0,0,0,0,0,0,0,0,0,0,0,0,0,0,
0,0,0,0,0,0,0,0,0,0,0,0,0,0,0,0,0,0,0,0,0,0,0,0,0,0,0,0,0,0,0,0,0,0,0,0,320,0,0,0,215,291,0,0,0,0,0,0,0,0,0,262,0,0,0,320,0,0,0,0,0,0,0,0,0,0,0,0,0,0,
0,0,0,0,0,0,0,0,0,0,0,0,0,0,0,0,0,0,0,0,0,0,0,0,0,0,0,0,0,0,0,0,0,0,0,0,0,0,0,0,0,0,0,0,0,0,0,0,0,0,0,0,0,0,0,0,0,0,0,0,0,0,0,0,0,0,0,0,0,0,
0,0,0,0,0,0,0,0,0,0,0,0,0,0,0,0,0,0,0,0,0,0,0,0,0,0,0,0,0,0,0,0,0,0,0,0,0,0,0,0,0,0,0,0,0,0,0,0,0,0,0,0,0,0,0,0,0,0,0,0,0,0,0,0,0,0,0,0,0,0,
0,0,0,0,0,0,0,0,0,0,0,0,0,0,0,0,0,0,0,0,0,0,0,0,0,0,0,0,0,0,0,0,0,0,0,0,0,0,0,0,0,0,0,0,0,0,0,0,0,0,0,0,0,0,0,0,0,0,0,0,0,0,0,0,0,0,0,0,0,0,
0,0,0,0,0,0,0,0,0,0,0,0,0,0,0,0,0,0,0,0,0,0,0,0,0,0,0,0,0,0,0,0,0,0,0,0,0,0,0,0,0,0,0,0,0,0,0,0,0,0,0,0,0,0,0,0,0,0,0,0,0,0,0,0,0,0,0,0,0,0,
0,0,0,0,0,0,0,0,0,0,0,0,0,0,0,0,0,0,0,0,0,0,0,0,0,0,0,0,0,0,0,0,0,0,0,0,0,0,0,0,0,0,0,0,0,0,0,0,0,0,0,0,0,0,0,0,0,0,0,0,0,0,0,0,0,0,0,0,0,0,
0,0,0,0,0,0,0,0,0,0,0,0,0,0,0,0,0,0,0,0,0,0,0,0,0,0,0,0,0,0,0,0,0,0,0,0,0,0,0,0,0,0,0,0,0,0,0,0,0,0,0,0,0,0,0,0,0,0,0,0,0,0,0,0,0,0,0,0,0,0,
0,0,0,0,0,0,0,0,0,0,0,0,0,0,0,0,0,0,0,0,0,0,0,0,0,0,0,0,0,0,0,0,0,0,0,0,0,0,0,0,0,0,0,0,0,0,0,0,0,0,0,0,0,0,0,0,0,0,0,0,0,0,0,0,0,0,0,0,0,0,
0,0,0,0,0,0,0,0,0,0,0,0,0,0,0,0,0,0,0,0,0,0,0,0,0,0,0,0,0,0,0,0,0,0,0,0,0,0,0,0,0,0,0,0,0,0,0,0,0,0,0,0,0,0,0,0,0,0,0,0,0,0,0,0,0,0,0,0,0,0,
0,0,0,0,0,0,0,0,0,0,0,0,0,0,0,0,0,0,0,0,0,0,0,0,0,0,0,0,0,0,0,0,0,0,0,0,0,0,0,0,0,0,0,0,0,0,0,0,0,0,0,0,0,0,0,0,0,0,0,0,0,0,0,0,0,0,0,0,0,0,
0,0,0,0,0,0,0,0,0,0,0,0,0,0,0,0,0,0,0,0,0,0,0,0,0,0,0,0,0,0,0,0,0,0,0,0,0,0,0,0,0,0,0,0,0,0,0,0,0,0,0,0,0,0,0,0,0,0,0,0,0,0,0,0,0,0,0,0,0,0,
0,0,0,0,0,0,0,0,0,0,0,0,0,0,0,0,0,0,0,0,0,0,0,0,0,0,0,0,0,0,0,0,0,0,0,0,0,0,0,0,0,0,0,0,0,0,0,0,0,0,0,0,0,0,0,0,0,0,0,0,0,0,0,0,0,0,0,0,0,0,
0,0,0,0,0,0,0,0,0,0,0,0,0,0,0,0,0,0,0,0,0,0,0,0,0,0,0,0,0,0,0,0,0,0,0,0,0,0,0,0,0,0,0,0,0,0,0,0,0,0,0,0,0,0,0,0,0,0,0,0,0,0,0,0,0,0,0,0,0,0,
0,0,0,0,0,0,0,0,0,0,0,0,0,0,0,0,0,0,0,0,0,0,0,0,0,0,0,0,0,0,0,0,0,0,0,0,0,0,0,0,0,0,0,0,0,0,0,0,0,0,0,0,0,0,0,0,0,0,0,0,0,0,0,0,0,0,0,0,0,0,
0,0,0,0,0,0,0,0,0,0,0,0,0,0,0,0,0,0,0,0,0,0,0,0,0,0,0,0,0,0,0,0,0,0,0,0,0,0,0,0,0,0,0,0,0,0,0,0,0,0,0,0,0,0,0,0,0,0,0,0,0,0,0,0,0,0,0,0,0,0
</data>
 </layer>
 <objectgroup id="4" name="room triggers">
  <object id="2" name="Room5" x="2749.58" y="834.485" width="896.788" height="1085.28"/>
  <object id="3" name="Room6" x="2050.06" y="1988" width="1517.94" height="944"/>
  <object id="5" name="Room7" x="830.97" y="1996.67" width="1148.48" height="942.425"/>
  <object id="6" name="Room2" x="1023.27" y="959.637" width="640.909" height="959.151"/>
  <object id="7" name="Room3" x="1025.76" y="466" width="1666.24" height="432.606"/>
  <object id="8" name="Room4" x="2756.11" y="445.94" width="889.334" height="318.667"/>
  <object id="58" name="Room1" x="1730.91" y="963.394" width="446.122" height="954.545"/>
 </objectgroup>
 <objectgroup id="5" name="spawn points">
  <object id="23" name="Enemy spawn" type="Spawn point" x="3536" y="1788">
   <properties>
    <property name="Room" value="Room5"/>
   </properties>
   <point/>
  </object>
  <object id="24" name="Player spawn" type="Spawn point" x="2306.67" y="1376">
   <properties>
    <property name="Room" value="Room1"/>
   </properties>
   <point/>
  </object>
  <object id="25" name="Enemy spawn" type="Spawn point" x="3518.67" y="1644">
   <properties>
    <property name="Room" value="Room5"/>
   </properties>
   <point/>
  </object>
  <object id="26" name="Enemy spawn" type="Spawn point" x="2848.67" y="1601.33">
   <properties>
    <property name="Room" value="Room5"/>
   </properties>
   <point/>
  </object>
  <object id="27" name="Enemy spawn" type="Spawn point" x="2857.33" y="1826.67">
   <properties>
    <property name="Room" value="Room5"/>
   </properties>
   <point/>
  </object>
  <object id="28" name="Enemy spawn" type="Spawn point" x="1776.67" y="1152">
   <properties>
    <property name="Room" value="Room1"/>
   </properties>
   <point/>
  </object>
  <object id="29" name="Enemy spawn" type="Spawn point" x="3488" y="2868">
   <properties>
    <property name="Room" value="Room6"/>
   </properties>
   <point/>
  </object>
  <object id="30" name="Enemy spawn" type="Spawn point" x="3288" y="2862">
   <properties>
    <property name="Room" value="Room6"/>
   </properties>
   <point/>
  </object>
  <object id="31" name="Enemy spawn" type="Spawn point" x="2146" y="2486">
   <properties>
    <property name="Room" value="Room6"/>
   </properties>
   <point/>
  </object>
  <object id="32" name="Enemy spawn" type="Spawn point" x="3076" y="2858">
   <properties>
    <property name="Room" value="Room6"/>
   </properties>
   <point/>
  </object>
  <object id="33" name="Enemy spawn" type="Spawn point" x="2134" y="2140">
   <properties>
    <property name="Room" value="Room6"/>
   </properties>
   <point/>
  </object>
  <object id="34" name="Enemy spawn" type="Spawn point" x="2238" y="2704">
   <properties>
    <property name="Room" value="Room6"/>
   </properties>
   <point/>
  </object>
  <object id="35" name="Enemy spawn" type="Spawn point" x="1798.67" y="1816">
   <properties>
    <property name="Room" value="Room1"/>
   </properties>
   <point/>
  </object>
  <object id="36" name="Enemy spawn" type="Spawn point" x="2023.33" y="1826.67">
   <properties>
    <property name="Room" value="Room1"/>
   </properties>
   <point/>
  </object>
  <object id="37" name="Enemy spawn" type="Spawn point" x="1526" y="2444">
   <properties>
    <property name="Room" value="Room7"/>
   </properties>
   <point/>
  </object>
  <object id="38" name="Enemy spawn" type="Spawn point" x="1580" y="2798">
   <properties>
    <property name="Room" value="Room7"/>
   </properties>
   <point/>
  </object>
  <object id="39" name="Enemy spawn" type="Spawn point" x="1231.82" y="2148.85">
   <properties>
    <property name="Room" value="Room7"/>
   </properties>
   <point/>
  </object>
  <object id="40" name="Enemy spawn" type="Spawn point" x="1149.82" y="2491.76">
   <properties>
    <property name="Room" value="Room7"/>
   </properties>
   <point/>
  </object>
  <object id="41" name="Enemy spawn" type="Spawn point" x="1322.79" y="2736.24">
   <properties>
    <property name="Room" value="Room7"/>
   </properties>
   <point/>
  </object>
  <object id="42" name="Enemy spawn" type="Spawn point" x="1323.64" y="1102.79">
   <properties>
    <property name="Room" value="Room2"/>
   </properties>
   <point/>
  </object>
  <object id="43" name="Enemy spawn" type="Spawn point" x="1081.64" y="1110.36">
   <properties>
    <property name="Room" value="Room2"/>
   </properties>
   <point/>
  </object>
  <object id="44" name="Enemy spawn" type="Spawn point" x="1538.3" y="1206.24">
   <properties>
    <property name="Room" value="Room2"/>
   </properties>
   <point/>
  </object>
  <object id="45" name="Enemy spawn" type="Spawn point" x="2018.12" y="575.879">
   <properties>
    <property name="Room" value="Room3"/>
   </properties>
   <point/>
  </object>
  <object id="46" name="Enemy spawn" type="Spawn point" x="2438.36" y="608.909">
   <properties>
    <property name="Room" value="Room3"/>
   </properties>
   <point/>
  </object>
  <object id="47" name="Enemy spawn" type="Spawn point" x="2578" y="676">
   <properties>
    <property name="Room" value="Room3"/>
   </properties>
   <point/>
  </object>
  <object id="48" name="Enemy spawn" type="Spawn point" x="2590" y="850">
   <properties>
    <property name="Room" value="Room3"/>
   </properties>
   <point/>
  </object>
  <object id="49" name="Enemy spawn" type="Spawn point" x="1530" y="1072">
   <properties>
    <property name="Room" value="Room2"/>
   </properties>
   <point/>
  </object>
  <object id="50" name="Enemy spawn" type="Spawn point" x="2114.67" y="1844">
   <properties>
    <property name="Room" value="Room1"/>
   </properties>
   <point/>
  </object>
  <object id="51" name="Enemy spawn" type="Spawn point" x="1894.67" y="1134.67">
   <properties>
    <property name="Room" value="Room1"/>
   </properties>
   <point/>
  </object>
  <object id="52" name="Enemy spawn" type="Spawn point" x="3574.67" y="740">
   <properties>
    <property name="Room" value="Room4"/>
   </properties>
   <point/>
  </object>
  <object id="53" name="Enemy spawn" type="Spawn point" x="3390" y="1853.33">
   <properties>
    <property name="Room" value="Room5"/>
   </properties>
   <point/>
  </object>
  <object id="54" name="Enemy spawn" type="Spawn point" x="3142" y="1696.67">
   <properties>
    <property name="Room" value="Room5"/>
   </properties>
   <point/>
  </object>
  <object id="55" name="Hostage spawn" type="Spawn point" x="3544" y="1904">
   <point/>
  </object>
  <object id="56" name="Hostage spawn" type="Spawn point" x="3418.67" y="544">
   <point/>
  </object>
  <object id="57" name="Hostage spawn" type="Spawn point" x="3550" y="1386">
   <point/>
  </object>
  <object id="61" name="Enemy spawn" type="Spawn point" x="1332" y="1342">
   <properties>
    <property name="Room" value="Room2"/>
   </properties>
   <point/>
  </object>
  <object id="62" name="Enemy spawn" type="Spawn point" x="1084" y="1452">
   <properties>
    <property name="Room" value="Room2"/>
   </properties>
   <point/>
  </object>
  <object id="63" name="Enemy spawn" type="Spawn point" x="2070" y="710">
   <properties>
    <property name="Room" value="Room3"/>
   </properties>
   <point/>
  </object>
  <object id="64" name="Enemy spawn" type="Spawn point" x="2070" y="832">
   <properties>
    <property name="Room" value="Room3"/>
   </properties>
   <point/>
  </object>
  <object id="66" name="Enemy spawn" type="Spawn point" x="1580" y="594">
   <properties>
    <property name="Room" value="Room3"/>
   </properties>
   <point/>
  </object>
  <object id="67" name="Enemy spawn" type="Spawn point" x="1604" y="806">
   <properties>
    <property name="Room" value="Room3"/>
   </properties>
   <point/>
  </object>
  <object id="68" name="Enemy spawn" type="Spawn point" x="2138" y="2258">
   <properties>
    <property name="Room" value="Room6"/>
   </properties>
   <point/>
  </object>
  <object id="69" name="Enemy spawn" type="Spawn point" x="3488" y="2630">
   <properties>
    <property name="Room" value="Room6"/>
   </properties>
   <point/>
  </object>
  <object id="72" name="Enemy spawn" type="Spawn point" x="2492" y="2816">
   <properties>
    <property name="Room" value="Room6"/>
   </properties>
   <point/>
  </object>
  <object id="73" name="Enemy spawn" type="Spawn point" x="2762" y="2872">
   <properties>
    <property name="Room" value="Room6"/>
   </properties>
   <point/>
  </object>
  <object id="74" name="Enemy spawn" type="Spawn point" x="1514" y="2250">
   <properties>
    <property name="Room" value="Room7"/>
   </properties>
   <point/>
  </object>
  <object id="75" name="Enemy spawn" type="Spawn point" x="1056" y="2812">
   <properties>
    <property name="Room" value="Room7"/>
   </properties>
   <point/>
  </object>
  <object id="76" name="Enemy spawn" type="Spawn point" x="988" y="2228">
   <properties>
    <property name="Room" value="Room7"/>
   </properties>
   <point/>
  </object>
  <object id="77" name="Hostage spawn" type="Spawn point" x="916" y="2106">
   <point/>
  </object>
  <object id="78" name="Hostage spawn" type="Spawn point" x="922" y="2546">
   <point/>
  </object>
  <object id="79" name="Hostage spawn" type="Spawn point" x="918" y="2886">
   <point/>
  </object>
  <object id="80" name="Bomb spawn" type="Spawn point" x="1374.67" y="2478.67">
   <point/>
  </object>
  <object id="81" name="Bomb spawn" type="Spawn point" x="2636" y="1460">
   <point/>
  </object>
 </objectgroup>
</map>
